;FLAVOR:Marlin
;TIME:8924
;Filament used: 3.80472m
;Layer height: 0.1
;MINX:51.019
;MINY:65
;MINZ:0.3
;MAXX:152.619
;MAXY:135
;MAXZ:2
;Generated with Cura_SteamEngine master
M140 S60
M105
M190 S60
M104 S215
M105
M109 S215
M82 ;absolute extrusion mode
G21 ;metric values
 G90 ;absolute positioning
 M82 ;set extruder to absolute mode
 M107 ;start with the fan off
 G28 X0 Y0 ;move X/Y to min endstops
 G28 Z0 ;move Z to min endstops
 G1 Z15.0 F120 ;move the platform down 15mm
 G92 E0 ;zero the extruded length
 G1 F200 E6 ;extrude 6 mm of feed stock
 G92 E0 ;zero the extruded length again
 G1 F120 
 ;Put printing message on LCD screen
 M117 Printing...
G92 E0
G92 E0
G1 F1500 E-6.5
;LAYER_COUNT:18
;LAYER:0
M107
G1 F600 Z1.3
G0 F1800 X55.192 Y67.286 Z1.3
;TYPE:SKIRT
G1 F600 Z0.3
G1 F1500 E0
G1 F1350 X55.826 Y66.815 E0.0394
G1 X56.463 Y66.433 E0.07646
G1 X56.985 Y66.153 E0.10601
G1 X57.699 Y65.816 E0.1454
G1 X58.422 Y65.559 E0.18368
G1 X58.983 Y65.39 E0.21292
G1 X59.75 Y65.2 E0.25234
G1 X60.466 Y65.096 E0.28843
G1 X61.053 Y65.038 E0.31786
G1 X61.82 Y65 E0.35617
G1 X114.818 Y65 E3.00026
G1 X115.585 Y65.038 E3.03857
G1 X116.172 Y65.096 E3.068
G1 X116.953 Y65.213 E3.1074
G1 X117.655 Y65.39 E3.14351
G1 X118.216 Y65.559 E3.17275
G1 X118.959 Y65.824 E3.2121
G1 X119.653 Y66.153 E3.25042
G1 X120.175 Y66.433 E3.27997
G1 X120.851 Y66.841 E3.31936
G1 X121.443 Y67.283 E3.35622
G1 X121.894 Y67.654 E3.38536
G1 X122.478 Y68.186 E3.42477
G1 X122.96 Y68.72 E3.46066
G1 X123.333 Y69.173 E3.48994
G1 X123.804 Y69.807 E3.52934
G1 X124.191 Y70.454 E3.56695
G1 X124.47 Y70.976 E3.59648
G1 X124.807 Y71.691 E3.63592
G1 X125.057 Y72.395 E3.67319
G1 X125.131 Y72.639 E3.68591
G1 X126.072 Y75 E3.81271
G1 X128.565 Y75 E3.93709
G1 X129.506 Y72.639 E4.06389
G1 X129.58 Y72.395 E4.07661
G1 X129.847 Y71.651 E4.11604
G1 X130.167 Y70.976 E4.15331
G1 X130.446 Y70.454 E4.18284
G1 X130.853 Y69.778 E4.22221
G1 X131.308 Y69.168 E4.26018
G1 X131.68 Y68.717 E4.28934
G1 X132.212 Y68.134 E4.32872
G1 X132.739 Y67.659 E4.36411
G1 X133.192 Y67.286 E4.39339
G1 X133.826 Y66.815 E4.43279
G1 X134.463 Y66.433 E4.46985
G1 X134.985 Y66.153 E4.4994
G1 X135.699 Y65.816 E4.53879
G1 X136.422 Y65.559 E4.57707
G1 X136.983 Y65.39 E4.60631
G1 X137.75 Y65.2 E4.64573
G1 X138.466 Y65.096 E4.68182
G1 X139.053 Y65.038 E4.71125
G1 X139.82 Y65 E4.74956
G1 X141.818 Y65 E4.84925
G1 X142.585 Y65.038 E4.88756
G1 X143.172 Y65.096 E4.91699
G1 X143.953 Y65.213 E4.95639
G1 X144.655 Y65.39 E4.9925
G1 X145.216 Y65.559 E5.02174
G1 X145.959 Y65.824 E5.06109
G1 X146.653 Y66.153 E5.09941
G1 X147.175 Y66.433 E5.12896
G1 X147.851 Y66.841 E5.16835
G1 X148.443 Y67.283 E5.20521
G1 X148.894 Y67.654 E5.23435
G1 X149.478 Y68.186 E5.27376
G1 X149.96 Y68.72 E5.30965
G1 X150.333 Y69.173 E5.33892
G1 X150.804 Y69.807 E5.37833
G1 X151.191 Y70.454 E5.41594
G1 X151.47 Y70.976 E5.44547
G1 X151.807 Y71.691 E5.48491
G1 X152.055 Y72.387 E5.52177
G1 X152.225 Y72.947 E5.55097
G1 X152.416 Y73.714 E5.5904
G1 X152.523 Y74.445 E5.62726
G1 X152.581 Y75.031 E5.65664
G1 X152.619 Y75.799 E5.695
G1 X152.619 Y124.199 E8.10968
G1 X152.581 Y124.967 E8.14805
G1 X152.523 Y125.553 E8.17743
G1 X152.406 Y126.334 E8.21682
G1 X152.227 Y127.043 E8.25331
G1 X152.057 Y127.605 E8.2826
G1 X151.79 Y128.349 E8.32204
G1 X151.473 Y129.019 E8.35902
G1 X151.195 Y129.54 E8.38848
G1 X150.788 Y130.217 E8.42789
G1 X150.336 Y130.825 E8.46568
G1 X149.964 Y131.277 E8.49489
G1 X149.432 Y131.86 E8.53426
G1 X148.899 Y132.341 E8.57008
G1 X148.446 Y132.714 E8.59936
G1 X147.812 Y133.185 E8.63876
G1 X147.175 Y133.567 E8.67582
G1 X146.653 Y133.847 E8.70537
G1 X145.939 Y134.184 E8.74476
G1 X145.216 Y134.441 E8.78304
G1 X144.655 Y134.61 E8.81227
G1 X143.888 Y134.8 E8.8517
G1 X143.172 Y134.904 E8.88779
G1 X142.585 Y134.962 E8.91722
G1 X141.818 Y135 E8.95553
G1 X88.82 Y135 E11.59961
G1 X88.053 Y134.962 E11.63793
G1 X87.466 Y134.904 E11.66736
G1 X86.685 Y134.787 E11.70675
G1 X85.983 Y134.61 E11.74287
G1 X85.422 Y134.441 E11.7721
G1 X84.679 Y134.176 E11.81146
G1 X83.985 Y133.847 E11.84978
G1 X83.463 Y133.567 E11.87933
G1 X82.787 Y133.159 E11.91872
G1 X82.192 Y132.714 E11.95579
G1 X81.739 Y132.341 E11.98507
G1 X81.156 Y131.809 E12.02444
G1 X80.681 Y131.285 E12.05973
G1 X80.308 Y130.833 E12.08896
G1 X79.837 Y130.199 E12.12837
G1 X79.442 Y129.54 E12.1667
G1 X79.164 Y129.019 E12.19616
G1 X78.828 Y128.304 E12.23558
G1 X78.579 Y127.602 E12.27274
G1 X78.507 Y127.362 E12.28524
G1 X77.564 Y125 E12.41212
G1 X75.072 Y125 E12.53645
G1 X74.131 Y127.361 E12.66325
G1 X74.057 Y127.605 E12.67597
G1 X73.79 Y128.349 E12.71541
G1 X73.473 Y129.019 E12.75239
G1 X73.195 Y129.54 E12.78185
G1 X72.788 Y130.217 E12.82126
G1 X72.336 Y130.825 E12.85905
G1 X71.964 Y131.277 E12.88826
G1 X71.432 Y131.86 E12.92764
G1 X70.899 Y132.341 E12.96345
G1 X70.446 Y132.714 E12.99273
G1 X69.812 Y133.185 E13.03213
G1 X69.175 Y133.567 E13.06919
G1 X68.653 Y133.847 E13.09874
G1 X67.939 Y134.184 E13.13813
G1 X67.216 Y134.441 E13.17641
G1 X66.655 Y134.61 E13.20564
G1 X65.888 Y134.8 E13.24507
G1 X65.172 Y134.904 E13.28116
G1 X64.585 Y134.962 E13.31059
G1 X63.818 Y135 E13.3489
G1 X61.82 Y135 E13.44858
G1 X61.053 Y134.962 E13.4869
G1 X60.466 Y134.904 E13.51633
G1 X59.685 Y134.787 E13.55572
G1 X58.983 Y134.61 E13.59184
G1 X58.422 Y134.441 E13.62107
G1 X57.679 Y134.176 E13.66043
G1 X56.985 Y133.847 E13.69875
G1 X56.463 Y133.567 E13.7283
G1 X55.787 Y133.159 E13.76769
G1 X55.192 Y132.714 E13.80476
G1 X54.739 Y132.341 E13.83404
G1 X54.156 Y131.809 E13.87341
G1 X53.681 Y131.285 E13.9087
G1 X53.308 Y130.833 E13.93793
G1 X52.837 Y130.199 E13.97734
G1 X52.442 Y129.54 E14.01567
G1 X52.164 Y129.019 E14.04513
G1 X51.828 Y128.304 E14.08455
G1 X51.58 Y127.605 E14.12155
G1 X51.41 Y127.043 E14.15084
G1 X51.22 Y126.277 E14.19022
G1 X51.113 Y125.543 E14.22722
G1 X51.056 Y124.959 E14.2565
G1 X51.019 Y124.201 E14.29436
G1 X51.019 Y75.801 E16.70904
G1 X51.055 Y75.048 E16.74665
G1 X51.112 Y74.46 E16.77613
G1 X51.228 Y73.679 E16.81552
G1 X51.412 Y72.947 E16.85317
G1 X51.582 Y72.387 E16.88237
G1 X51.85 Y71.644 E16.92178
G1 X52.167 Y70.976 E16.95867
G1 X52.446 Y70.454 E16.9882
G1 X52.853 Y69.778 E17.02756
G1 X53.308 Y69.168 E17.06553
G1 X53.68 Y68.717 E17.0947
G1 X54.212 Y68.134 E17.13407
G1 X54.739 Y67.659 E17.16947
G1 X55.192 Y67.286 E17.19874
G0 F1800 X55.446 Y67.594
G1 F1350 X56.065 Y67.137 E17.23713
G1 X56.652 Y66.786 E17.27125
G1 X57.174 Y66.506 E17.3008
G1 X57.87 Y66.178 E17.33919
G1 X58.538 Y65.942 E17.37454
G1 X59.099 Y65.773 E17.40377
G1 X59.846 Y65.589 E17.44215
G1 X60.505 Y65.494 E17.47537
G1 X61.092 Y65.436 E17.50479
G1 X61.82 Y65.4 E17.54116
G1 X114.818 Y65.4 E20.18524
G1 X115.546 Y65.436 E20.2216
G1 X116.133 Y65.494 E20.25103
G1 X116.893 Y65.609 E20.28938
G1 X117.539 Y65.773 E20.32263
G1 X118.1 Y65.942 E20.35186
G1 X118.824 Y66.201 E20.39023
G1 X119.464 Y66.506 E20.4256
G1 X119.986 Y66.786 E20.45515
G1 X120.644 Y67.184 E20.49351
G1 X121.189 Y67.592 E20.52748
G1 X121.64 Y67.963 E20.55661
G1 X122.208 Y68.482 E20.595
G1 X122.652 Y68.974 E20.62806
G1 X123.025 Y69.427 E20.65734
G1 X123.482 Y70.046 E20.69573
G1 X123.838 Y70.643 E20.7304
G1 X124.117 Y71.165 E20.75993
G1 X124.444 Y71.861 E20.7983
G1 X124.674 Y72.51 E20.83265
G1 X124.751 Y72.766 E20.84599
G1 X125.802 Y75.4 E20.98747
G1 X128.835 Y75.4 E21.13879
G1 X129.886 Y72.766 E21.28028
G1 X129.963 Y72.51 E21.29361
G1 X130.224 Y71.787 E21.33196
G1 X130.52 Y71.165 E21.36633
G1 X130.799 Y70.643 E21.39586
G1 X131.196 Y69.984 E21.43424
G1 X131.616 Y69.422 E21.46924
G1 X131.988 Y68.971 E21.49841
G1 X132.508 Y68.404 E21.53679
G1 X132.993 Y67.967 E21.56936
G1 X133.446 Y67.594 E21.59864
G1 X134.065 Y67.137 E21.63702
G1 X134.652 Y66.786 E21.67115
G1 X135.174 Y66.506 E21.7007
G1 X135.87 Y66.178 E21.73909
G1 X136.538 Y65.942 E21.77443
G1 X137.099 Y65.773 E21.80366
G1 X137.846 Y65.589 E21.84204
G1 X138.505 Y65.494 E21.87526
G1 X139.092 Y65.436 E21.90469
G1 X139.82 Y65.4 E21.94105
G1 X141.818 Y65.4 E22.04073
G1 X142.546 Y65.436 E22.0771
G1 X143.133 Y65.494 E22.10653
G1 X143.893 Y65.609 E22.14488
G1 X144.539 Y65.773 E22.17813
G1 X145.1 Y65.942 E22.20736
G1 X145.824 Y66.201 E22.24572
G1 X146.464 Y66.506 E22.28109
G1 X146.986 Y66.786 E22.31064
G1 X147.644 Y67.184 E22.34901
G1 X148.189 Y67.592 E22.38297
G1 X148.64 Y67.963 E22.41211
G1 X149.208 Y68.482 E22.45049
G1 X149.652 Y68.974 E22.48356
G1 X150.025 Y69.427 E22.51283
G1 X150.482 Y70.046 E22.55122
G1 X150.838 Y70.643 E22.5859
G1 X151.117 Y71.165 E22.61543
G1 X151.444 Y71.861 E22.65379
G1 X151.672 Y72.503 E22.68778
G1 X151.842 Y73.063 E22.71698
G1 X152.027 Y73.81 E22.75537
G1 X152.125 Y74.484 E22.78935
G1 X152.183 Y75.07 E22.81873
G1 X152.219 Y75.799 E22.85515
G1 X152.219 Y124.199 E25.26983
G1 X152.183 Y124.928 E25.30625
G1 X152.125 Y125.514 E25.33562
G1 X152.01 Y126.274 E25.37397
G1 X151.844 Y126.928 E25.40764
G1 X151.674 Y127.49 E25.43693
G1 X151.413 Y128.213 E25.47528
G1 X151.12 Y128.831 E25.5094
G1 X150.842 Y129.352 E25.53886
G1 X150.445 Y130.011 E25.57724
G1 X150.027 Y130.57 E25.61207
G1 X149.655 Y131.022 E25.64127
G1 X149.136 Y131.59 E25.67966
G1 X148.645 Y132.033 E25.71265
G1 X148.192 Y132.406 E25.74193
G1 X147.573 Y132.863 E25.78031
G1 X146.986 Y133.214 E25.81443
G1 X146.464 Y133.494 E25.84399
G1 X145.768 Y133.822 E25.88237
G1 X145.1 Y134.058 E25.91772
G1 X144.539 Y134.227 E25.94695
G1 X143.792 Y134.411 E25.98533
G1 X143.133 Y134.506 E26.01855
G1 X142.546 Y134.564 E26.04798
G1 X141.818 Y134.6 E26.08434
G1 X88.82 Y134.6 E28.72842
G1 X88.092 Y134.564 E28.76479
G1 X87.505 Y134.506 E28.79422
G1 X86.745 Y134.391 E28.83256
G1 X86.099 Y134.227 E28.86582
G1 X85.538 Y134.058 E28.89505
G1 X84.814 Y133.799 E28.93341
G1 X84.174 Y133.494 E28.96878
G1 X83.652 Y133.214 E28.99833
G1 X82.994 Y132.816 E29.0367
G1 X82.446 Y132.406 E29.07084
G1 X81.993 Y132.033 E29.10012
G1 X81.426 Y131.514 E29.13847
G1 X80.989 Y131.03 E29.171
G1 X80.616 Y130.578 E29.20024
G1 X80.158 Y129.96 E29.23861
G1 X79.795 Y129.352 E29.27394
G1 X79.517 Y128.831 E29.3034
G1 X79.191 Y128.134 E29.34179
G1 X78.962 Y127.486 E29.37608
G1 X78.884 Y127.228 E29.38953
G1 X77.836 Y124.6 E29.53068
G1 X74.802 Y124.6 E29.68205
G1 X73.751 Y127.234 E29.82353
G1 X73.674 Y127.49 E29.83687
G1 X73.413 Y128.213 E29.87522
G1 X73.12 Y128.831 E29.90934
G1 X72.842 Y129.352 E29.9388
G1 X72.445 Y130.011 E29.97718
G1 X72.027 Y130.57 E30.01201
G1 X71.655 Y131.022 E30.04121
G1 X71.136 Y131.59 E30.0796
G1 X70.645 Y132.033 E30.11259
G1 X70.192 Y132.406 E30.14187
G1 X69.573 Y132.863 E30.18025
G1 X68.986 Y133.214 E30.21438
G1 X68.464 Y133.494 E30.24393
G1 X67.768 Y133.822 E30.28231
G1 X67.1 Y134.058 E30.31766
G1 X66.539 Y134.227 E30.34689
G1 X65.792 Y134.411 E30.38527
G1 X65.133 Y134.506 E30.41849
G1 X64.546 Y134.564 E30.44792
G1 X63.818 Y134.6 E30.48428
G1 X61.82 Y134.6 E30.58396
G1 X61.092 Y134.564 E30.62033
G1 X60.505 Y134.506 E30.64976
G1 X59.745 Y134.391 E30.6881
G1 X59.099 Y134.227 E30.72136
G1 X58.538 Y134.058 E30.75059
G1 X57.814 Y133.799 E30.78895
G1 X57.174 Y133.494 E30.82432
G1 X56.652 Y133.214 E30.85387
G1 X55.994 Y132.816 E30.89224
G1 X55.446 Y132.406 E30.92638
G1 X54.993 Y132.033 E30.95566
G1 X54.426 Y131.514 E30.99401
G1 X53.989 Y131.03 E31.02654
G1 X53.616 Y130.578 E31.05578
G1 X53.158 Y129.96 E31.09415
G1 X52.795 Y129.352 E31.12948
G1 X52.517 Y128.831 E31.15894
G1 X52.191 Y128.134 E31.19733
G1 X51.963 Y127.49 E31.23142
G1 X51.793 Y126.928 E31.26071
G1 X51.609 Y126.181 E31.29909
G1 X51.511 Y125.504 E31.33322
G1 X51.454 Y124.92 E31.36249
G1 X51.419 Y124.201 E31.39841
G1 X51.419 Y75.801 E33.81309
G1 X51.454 Y75.087 E33.84876
G1 X51.511 Y74.499 E33.87823
G1 X51.624 Y73.738 E33.91661
G1 X51.795 Y73.063 E33.95135
G1 X51.965 Y72.503 E33.98055
G1 X52.226 Y71.78 E34.0189
G1 X52.52 Y71.165 E34.05291
G1 X52.799 Y70.643 E34.08244
G1 X53.196 Y69.984 E34.12082
G1 X53.616 Y69.422 E34.15582
G1 X53.988 Y68.971 E34.18499
G1 X54.508 Y68.404 E34.22337
G1 X54.993 Y67.967 E34.25594
G1 X55.446 Y67.594 E34.28522
G0 F1800 X55.7 Y67.903
G1 F1350 X56.303 Y67.459 E34.32258
G1 X56.841 Y67.138 E34.35383
G1 X57.363 Y66.858 E34.38338
G1 X58.04 Y66.541 E34.42068
G1 X58.653 Y66.325 E34.45311
G1 X59.214 Y66.156 E34.48234
G1 X59.941 Y65.978 E34.51968
G1 X60.545 Y65.892 E34.55012
G1 X61.132 Y65.834 E34.57954
G1 X61.82 Y65.8 E34.61391
G1 X114.818 Y65.8 E37.25799
G1 X115.506 Y65.834 E37.29236
G1 X116.093 Y65.892 E37.32179
G1 X116.833 Y66.005 E37.35913
G1 X117.424 Y66.156 E37.38956
G1 X117.985 Y66.325 E37.41879
G1 X118.689 Y66.578 E37.45612
G1 X119.275 Y66.858 E37.48852
G1 X119.797 Y67.138 E37.51807
G1 X120.436 Y67.527 E37.55539
G1 X120.935 Y67.901 E37.58651
G1 X121.386 Y68.272 E37.61564
G1 X121.938 Y68.777 E37.65297
G1 X122.343 Y69.228 E37.68321
G1 X122.716 Y69.681 E37.71248
G1 X123.16 Y70.284 E37.74984
G1 X123.486 Y70.831 E37.78161
G1 X123.765 Y71.353 E37.81114
G1 X124.081 Y72.031 E37.84846
G1 X124.291 Y72.626 E37.87994
G1 X124.374 Y72.9 E37.89422
G1 X125.53 Y75.8 E38.04997
G1 X129.107 Y75.8 E38.22843
G1 X130.263 Y72.9 E38.38418
G1 X130.346 Y72.626 E38.39847
G1 X130.6 Y71.923 E38.43576
G1 X130.872 Y71.353 E38.46727
G1 X131.151 Y70.831 E38.4968
G1 X131.539 Y70.191 E38.53414
G1 X131.925 Y69.677 E38.56621
G1 X132.297 Y69.226 E38.59537
G1 X132.803 Y68.675 E38.6327
G1 X133.247 Y68.276 E38.66248
G1 X133.7 Y67.903 E38.69175
G1 X134.303 Y67.459 E38.72911
G1 X134.841 Y67.138 E38.76037
G1 X135.363 Y66.858 E38.78992
G1 X136.04 Y66.541 E38.82722
G1 X136.653 Y66.325 E38.85964
G1 X137.214 Y66.156 E38.88887
G1 X137.941 Y65.978 E38.92621
G1 X138.545 Y65.892 E38.95665
G1 X139.132 Y65.834 E38.98608
G1 X139.82 Y65.8 E39.02045
G1 X141.818 Y65.8 E39.12013
G1 X142.506 Y65.834 E39.15449
G1 X143.093 Y65.892 E39.18392
G1 X143.833 Y66.005 E39.22127
G1 X144.424 Y66.156 E39.2517
G1 X144.985 Y66.325 E39.28093
G1 X145.689 Y66.578 E39.31825
G1 X146.275 Y66.858 E39.35065
G1 X146.797 Y67.138 E39.38021
G1 X147.436 Y67.527 E39.41753
G1 X147.935 Y67.901 E39.44864
G1 X148.386 Y68.272 E39.47778
G1 X148.938 Y68.777 E39.5151
G1 X149.343 Y69.228 E39.54534
G1 X149.716 Y69.681 E39.57462
G1 X150.16 Y70.284 E39.61198
G1 X150.486 Y70.831 E39.64375
G1 X150.765 Y71.353 E39.67328
G1 X151.081 Y72.031 E39.7106
G1 X151.289 Y72.62 E39.74176
G1 X151.459 Y73.18 E39.77096
G1 X151.638 Y73.906 E39.80826
G1 X151.727 Y74.524 E39.83941
G1 X151.785 Y75.11 E39.86879
G1 X151.819 Y75.799 E39.90321
G1 X151.819 Y124.199 E42.31789
G1 X151.785 Y124.888 E42.35231
G1 X151.727 Y125.474 E42.38169
G1 X151.614 Y126.214 E42.41903
G1 X151.461 Y126.812 E42.44983
G1 X151.291 Y127.374 E42.47912
G1 X151.037 Y128.077 E42.51641
G1 X150.767 Y128.642 E42.54765
G1 X150.489 Y129.163 E42.57712
G1 X150.102 Y129.804 E42.61447
G1 X149.718 Y130.316 E42.6464
G1 X149.346 Y130.768 E42.67561
G1 X148.84 Y131.32 E42.71297
G1 X148.391 Y131.724 E42.7431
G1 X147.938 Y132.097 E42.77238
G1 X147.335 Y132.541 E42.80974
G1 X146.797 Y132.862 E42.84099
G1 X146.275 Y133.142 E42.87054
G1 X145.598 Y133.459 E42.90784
G1 X144.985 Y133.675 E42.94026
G1 X144.424 Y133.844 E42.9695
G1 X143.697 Y134.022 E43.00684
G1 X143.093 Y134.108 E43.03727
G1 X142.506 Y134.166 E43.0667
G1 X141.818 Y134.2 E43.10107
G1 X88.82 Y134.2 E45.74515
G1 X88.132 Y134.166 E45.77952
G1 X87.545 Y134.108 E45.80894
G1 X86.805 Y133.995 E45.84629
G1 X86.214 Y133.844 E45.87672
G1 X85.653 Y133.675 E45.90595
G1 X84.949 Y133.422 E45.94328
G1 X84.363 Y133.142 E45.97568
G1 X83.841 Y132.862 E46.00523
G1 X83.202 Y132.473 E46.04255
G1 X82.7 Y132.097 E46.07384
G1 X82.247 Y131.724 E46.10312
G1 X81.696 Y131.218 E46.14044
G1 X81.298 Y130.775 E46.17015
G1 X80.925 Y130.323 E46.19939
G1 X80.48 Y129.722 E46.2367
G1 X80.148 Y129.163 E46.26914
G1 X79.87 Y128.642 E46.2986
G1 X79.554 Y127.964 E46.33592
G1 X79.345 Y127.37 E46.36733
G1 X79.265 Y127.104 E46.38119
G1 X78.106 Y124.2 E46.53718
G1 X74.53 Y124.2 E46.71559
G1 X73.374 Y127.1 E46.87134
G1 X73.291 Y127.374 E46.88563
G1 X73.037 Y128.077 E46.92292
G1 X72.767 Y128.642 E46.95416
G1 X72.489 Y129.163 E46.98362
G1 X72.102 Y129.804 E47.02098
G1 X71.718 Y130.316 E47.05291
G1 X71.346 Y130.768 E47.08211
G1 X70.84 Y131.32 E47.11947
G1 X70.391 Y131.724 E47.14961
G1 X69.938 Y132.097 E47.17888
G1 X69.335 Y132.541 E47.21624
G1 X68.797 Y132.862 E47.2475
