;FLAVOR:Marlin
;TIME:9888
;Filament used: 4.21637m
;Layer height: 0.1
;MINX:38.353
;MINY:42.6
;MINZ:0.3
;MAXX:161.641
;MAXY:157.406
;MAXZ:3
;Generated with Cura_SteamEngine master
M140 S60
M105
M190 S60
M104 S215
M105
M109 S215
M82 ;absolute extrusion mode
G21 ;metric values
 G90 ;absolute positioning
 M82 ;set extruder to absolute mode
 M107 ;start with the fan off
 G28 X0 Y0 ;move X/Y to min endstops
 G28 Z0 ;move Z to min endstops
 G1 Z15.0 F120 ;move the platform down 15mm
 G92 E0 ;zero the extruded length
 G1 F200 E6 ;extrude 6 mm of feed stock
 G92 E0 ;zero the extruded length again
 G1 F120 
 ;Put printing message on LCD screen
 M117 Printing...
G92 E0
G92 E0
G1 F1500 E-6.5
;LAYER_COUNT:28
;LAYER:0
M107
G1 F600 Z1.3
G0 F1800 X43.258 Y76.133 Z1.3
;TYPE:SKIRT
G1 F600 Z0.3
G1 F1500 E0
G1 F1350 X43.977 Y75.807 E0.03939
G1 X44.741 Y75.542 E0.07973
G1 X45.502 Y75.332 E0.11912
G1 X46.322 Y75.195 E0.16059
G1 X46.473 Y75.178 E0.16817
G1 X47.345 Y75.129 E0.21175
G1 X64.022 Y75.126 E1.04377
G1 X64.751 Y75.16 E1.08017
G1 X65.778 Y75.323 E1.13205
G1 X66.151 Y75.408 E1.15114
G1 X67.234 Y75.739 E1.20764
G1 X67.265 Y75.751 E1.2093
G1 X67.986 Y76.073 E1.24869
G1 X68.608 Y76.426 E1.28437
G1 X68.946 Y76.639 E1.3043
G1 X69.591 Y77.093 E1.34366
G1 X70.179 Y77.601 E1.38242
G1 X70.202 Y77.623 E1.38401
G1 X70.96 Y78.462 E1.44042
G1 X71.205 Y78.776 E1.46029
G1 X71.658 Y79.422 E1.49965
G1 X71.929 Y79.89 E1.52664
G1 X80.474 Y79.89 E1.95295
G1 X82.189 Y60.309 E2.93359
G1 X82.337 Y59.333 E2.98284
G1 X82.513 Y58.66 E3.01754
G1 X82.626 Y58.295 E3.0366
G1 X82.897 Y57.554 E3.07597
G1 X83.116 Y57.082 E3.10193
G1 X83.505 Y56.394 E3.14136
G1 X83.953 Y55.749 E3.18054
G1 X84.445 Y55.131 E3.21995
G1 X84.791 Y54.766 E3.24504
G1 X85.55 Y54.099 E3.29545
G1 X85.823 Y53.889 E3.31263
G1 X86.473 Y53.439 E3.35208
G1 X87.091 Y53.094 E3.38739
G1 X87.123 Y53.078 E3.38917
G1 X88.08 Y52.677 E3.44094
G1 X88.456 Y52.548 E3.46077
G1 X89.215 Y52.33 E3.50017
G1 X89.648 Y52.242 E3.52221
G1 X90.431 Y52.142 E3.56159
G1 X91.351 Y52.126 E3.6075
G1 X92.047 Y52.155 E3.64225
G1 X92.402 Y52.178 E3.66
G1 X109.431 Y53.667 E4.51282
G1 X126.194 Y50.71 E5.36204
G1 X141.832 Y43.418 E6.22288
G1 X142.564 Y43.121 E6.26229
G1 X143.43 Y42.874 E6.30722
G1 X143.838 Y42.783 E6.32807
G1 X144.616 Y42.65 E6.36745
G1 X145.097 Y42.608 E6.39154
G1 X145.887 Y42.6 E6.43095
G1 X146.534 Y42.654 E6.46335
G1 X146.911 Y42.701 E6.4823
G1 X147.689 Y42.838 E6.52171
G1 X148.152 Y42.959 E6.54559
G1 X148.898 Y43.218 E6.58498
G1 X149.489 Y43.485 E6.61734
G1 X149.848 Y43.666 E6.6374
G1 X150.534 Y44.057 E6.67679
G1 X151.125 Y44.474 E6.71288
G1 X151.152 Y44.495 E6.71458
G1 X152.009 Y45.27 E6.77223
G1 X152.274 Y45.548 E6.79139
G1 X152.789 Y46.147 E6.8308
G1 X153.35 Y46.974 E6.88066
G1 X153.453 Y47.149 E6.89079
G1 X153.8 Y47.809 E6.92799
G1 X160.802 Y62.826 E7.75463
G1 X161.01 Y63.313 E7.78105
G1 X161.261 Y64.072 E7.82093
G1 X161.36 Y64.432 E7.83956
G1 X161.579 Y65.533 E7.89557
G1 X161.583 Y65.565 E7.89717
G1 X161.641 Y66.352 E7.93654
G1 X161.634 Y66.904 E7.96409
G1 X161.618 Y67.239 E7.98082
G1 X161.541 Y68.025 E8.02022
G1 X161.448 Y68.529 E8.04579
G1 X161.174 Y69.497 E8.09598
G1 X161.059 Y69.822 E8.11318
G1 X160.683 Y70.708 E8.1612
G1 X160.669 Y70.736 E8.16276
G1 X160.28 Y71.424 E8.20219
G1 X159.854 Y72.03 E8.23915
G1 X159.615 Y72.338 E8.2586
G1 X159.1 Y72.936 E8.29797
G1 X158.548 Y73.462 E8.33601
G1 X157.731 Y74.083 E8.38721
G1 X157.433 Y74.28 E8.40503
G1 X156.428 Y74.842 E8.46248
G1 X149.219 Y78.203 E8.8593
G1 X149.197 Y138.844 E11.8847
G1 X149.124 Y139.908 E11.9379
G1 X149.079 Y140.234 E11.95432
G1 X148.902 Y141.125 E11.99964
G1 X148.659 Y141.905 E12.0404
G1 X148.411 Y142.496 E12.07238
G1 X148.268 Y142.802 E12.08923
G1 X147.692 Y143.827 E12.14789
G1 X147.674 Y143.854 E12.14951
G1 X147.203 Y144.488 E12.18891
G1 X146.84 Y144.898 E12.21623
G1 X146.557 Y145.196 E12.23673
G1 X145.742 Y145.941 E12.29182
G1 X145.718 Y145.96 E12.29335
G1 X145.075 Y146.418 E12.33273
G1 X144.381 Y146.813 E12.37257
G1 X144.029 Y146.99 E12.39223
G1 X143.307 Y147.308 E12.43159
G1 X142.527 Y147.56 E12.47249
G1 X141.84 Y147.712 E12.50759
G1 X141.565 Y147.76 E12.52152
G1 X140.781 Y147.856 E12.56092
G1 X140.226 Y147.876 E12.58863
G1 X129.065 Y147.879 E13.14545
G1 X128.67 Y148.538 E13.18378
G1 X128.043 Y149.404 E13.23712
G1 X128.023 Y149.428 E13.23868
G1 X127.488 Y150.009 E13.27809
G1 X126.863 Y150.558 E13.31959
G1 X126.55 Y150.805 E13.33948
G1 X125.906 Y151.262 E13.37888
G1 X125.29 Y151.616 E13.41432
G1 X125.257 Y151.633 E13.41618
G1 X124.538 Y151.959 E13.45556
G1 X123.769 Y152.226 E13.49617
G1 X123.007 Y152.436 E13.53561
G1 X122.241 Y152.567 E13.57438
G1 X122.099 Y152.584 E13.58151
G1 X121.173 Y152.639 E13.62779
G1 X110.033 Y152.64 E14.18357
G1 X109.605 Y153.341 E14.22455
G1 X109.151 Y153.987 E14.26394
G1 X108.853 Y154.346 E14.28722
G1 X108.304 Y154.914 E14.32663
G1 X107.768 Y155.37 E14.36174
G1 X107.459 Y155.61 E14.38126
G1 X106.811 Y156.062 E14.42067
G1 X106.246 Y156.384 E14.45312
G1 X106.213 Y156.401 E14.45497
G1 X105.494 Y156.727 E14.49436
G1 X104.709 Y156.998 E14.53579
G1 X103.948 Y157.206 E14.57515
G1 X103.157 Y157.338 E14.61516
G1 X103.008 Y157.355 E14.62264
G1 X102.124 Y157.405 E14.66681
G1 X85.45 Y157.406 E15.49868
G1 X84.441 Y157.34 E15.54913
G1 X83.712 Y157.212 E15.58605
G1 X83.326 Y157.125 E15.60579
G1 X82.225 Y156.79 E15.66321
G1 X82.194 Y156.778 E15.66487
G1 X81.473 Y156.456 E15.70426
G1 X81.004 Y156.197 E15.73099
G1 X80.725 Y156.03 E15.74721
G1 X79.975 Y155.519 E15.79249
G1 X79.949 Y155.499 E15.79413
G1 X79.349 Y154.987 E15.83348
G1 X78.932 Y154.563 E15.86315
G1 X78.703 Y154.311 E15.88014
G1 X78.111 Y153.574 E15.9273
G1 X78.094 Y153.55 E15.92877
G1 X77.671 Y152.883 E15.96817
G1 X77.524 Y152.591 E15.98448
G1 X66.554 Y152.793 E16.53187
G1 X65.683 Y152.76 E16.57535
G1 X64.77 Y152.622 E16.62142
G1 X64.393 Y152.542 E16.64065
G1 X63.63 Y152.339 E16.68004
G1 X63.165 Y152.174 E16.70466
G1 X62.444 Y151.852 E16.74405
G1 X61.933 Y151.567 E16.77324
G1 X61.597 Y151.363 E16.79285
G1 X60.944 Y150.92 E16.83222
G1 X60.467 Y150.53 E16.86296
G1 X59.901 Y149.979 E16.90237
G1 X59.542 Y149.563 E16.92978
G1 X59.287 Y149.246 E16.95008
G1 X58.824 Y148.606 E16.98949
G1 X58.477 Y148.016 E17.02364
G1 X58.41 Y147.878 E17.03129
G1 X47.349 Y147.877 E17.58313
G1 X46.553 Y147.836 E17.62289
G1 X45.781 Y147.72 E17.66184
G1 X45.455 Y147.654 E17.67843
G1 X44.69 Y147.458 E17.71783
G1 X44.123 Y147.258 E17.74783
G1 X43.182 Y146.814 E17.79974
G1 X42.846 Y146.627 E17.81892
G1 X42.176 Y146.208 E17.85835
G1 X41.563 Y145.733 E17.89704
G1 X41.535 Y145.709 E17.89888
G1 X40.736 Y144.918 E17.95497
G1 X40.474 Y144.618 E17.97484
G1 X39.985 Y143.997 E18.01427
G1 X39.623 Y143.436 E18.04758
G1 X39.255 Y142.738 E18.08695
G1 X39.055 Y142.267 E18.11248
G1 X38.91 Y141.891 E18.13258
G1 X38.621 Y140.976 E18.18046
G1 X38.462 Y140.177 E18.2211
G1 X38.394 Y139.552 E18.25247
G1 X38.361 Y138.834 E18.28833
G1 X38.355 Y99.996 E20.22596
G1 X38.364 Y99.821 E20.2347
G1 X38.353 Y84.127 E21.01768
G1 X38.387 Y83.394 E21.05429
G1 X38.545 Y82.389 E21.10504
G1 X38.63 Y82.011 E21.12437
G1 X38.966 Y80.906 E21.182
G1 X38.978 Y80.875 E21.18365
G1 X39.3 Y80.154 E21.22305
G1 X39.647 Y79.542 E21.25815
G1 X39.865 Y79.195 E21.27859
G1 X40.319 Y78.548 E21.31803
G1 X40.621 Y78.184 E21.34162
G1 X41.17 Y77.616 E21.38103
G1 X41.727 Y77.144 E21.41746
G1 X42.033 Y76.908 E21.43674
G1 X42.682 Y76.458 E21.47614
G1 X43.258 Y76.133 E21.50913
G0 F1800 X43.441 Y76.489
G1 F1350 X44.501 Y76.043 E21.56651
G1 X44.866 Y75.922 E21.58569
G1 X45.608 Y75.718 E21.62408
G1 X46.367 Y75.592 E21.66247
G1 X46.518 Y75.575 E21.67005
G1 X47.345 Y75.529 E21.71137
G1 X64.022 Y75.526 E22.54339
G1 X64.715 Y75.558 E22.578
G1 X65.689 Y75.713 E22.62721
G1 X66.062 Y75.798 E22.64629
G1 X67.089 Y76.112 E22.69987
G1 X67.12 Y76.124 E22.70153
G1 X67.822 Y76.439 E22.73992
G1 X68.394 Y76.764 E22.77274
G1 X68.732 Y76.977 E22.79267
G1 X69.361 Y77.421 E22.83108
G1 X69.902 Y77.89 E22.8668
G1 X69.925 Y77.912 E22.86839
G1 X70.644 Y78.708 E22.92191
G1 X70.889 Y79.022 E22.94178
G1 X71.33 Y79.652 E22.98014
G1 X71.613 Y80.146 E23.00855
G1 X71.68 Y80.29 E23.01647
G1 X80.84 Y80.29 E23.47346
G1 X82.587 Y60.344 E24.47238
G1 X82.728 Y59.418 E24.51911
G1 X82.895 Y58.779 E24.55206
G1 X83.008 Y58.414 E24.57113
G1 X83.273 Y57.692 E24.6095
G1 X83.474 Y57.261 E24.63322
G1 X83.854 Y56.591 E24.67165
G1 X84.277 Y55.982 E24.70865
G1 X84.758 Y55.382 E24.74701
G1 X85.073 Y55.048 E24.76992
G1 X85.794 Y54.416 E24.81775
G1 X86.067 Y54.206 E24.83493
G1 X86.7 Y53.769 E24.87331
G1 X87.27 Y53.452 E24.90585
G1 X87.302 Y53.436 E24.90763
G1 X88.21 Y53.055 E24.95676
G1 X88.586 Y52.926 E24.97659
G1 X89.68 Y52.642 E25.03298
G1 X89.719 Y52.635 E25.03496
G1 X90.482 Y52.539 E25.07332
G1 X91.334 Y52.525 E25.11584
G1 X92.03 Y52.554 E25.15059
G1 X92.367 Y52.576 E25.16744
G1 X109.451 Y54.07 E26.02302
G1 X126.313 Y51.095 E26.87726
G1 X142.001 Y43.78 E27.74084
G1 X142.714 Y43.492 E27.7792
G1 X143.517 Y43.264 E27.82085
G1 X143.925 Y43.173 E27.8417
G1 X144.683 Y43.045 E27.88005
G1 X145.121 Y43.008 E27.90198
G1 X145.89 Y43.001 E27.94035
G1 X146.484 Y43.051 E27.97009
G1 X146.861 Y43.098 E27.98904
G1 X147.619 Y43.233 E28.02746
G1 X148.04 Y43.343 E28.04917
G1 X148.767 Y43.596 E28.08757
G1 X149.308 Y43.842 E28.11722
G1 X149.667 Y44.023 E28.13728
G1 X150.335 Y44.405 E28.17567
G1 X150.879 Y44.79 E28.20892
G1 X150.906 Y44.811 E28.21062
G1 X151.719 Y45.546 E28.2653
G1 X151.984 Y45.824 E28.28446
G1 X152.485 Y46.408 E28.32285
G1 X153.005 Y47.176 E28.36913
G1 X153.108 Y47.351 E28.37926
G1 X153.438 Y47.978 E28.4146
G1 X160.44 Y62.995 E29.24125
G1 X160.637 Y63.458 E29.26635
G1 X160.875 Y64.178 E29.30418
G1 X160.974 Y64.538 E29.32281
G1 X161.182 Y65.582 E29.37592
G1 X161.186 Y65.614 E29.37753
G1 X161.241 Y66.381 E29.41589
G1 X161.235 Y66.885 E29.44104
G1 X161.219 Y67.22 E29.45777
G1 X161.142 Y67.985 E29.49613
G1 X161.057 Y68.446 E29.51952
G1 X160.797 Y69.363 E29.56707
G1 X160.682 Y69.688 E29.58427
G1 X160.325 Y70.529 E29.62985
G1 X160.311 Y70.557 E29.63141
G1 X159.931 Y71.227 E29.66984
G1 X159.538 Y71.785 E29.70389
G1 X159.299 Y72.093 E29.72334
G1 X158.797 Y72.675 E29.76168
G1 X158.286 Y73.16 E29.79683
G1 X157.511 Y73.749 E29.8454
G1 X157.213 Y73.946 E29.86322
G1 X156.259 Y74.48 E29.91776
G1 X148.819 Y77.949 E30.32731
G1 X148.797 Y138.844 E33.36538
G1 X148.727 Y139.853 E33.41584
G1 X148.682 Y140.179 E33.43225
G1 X148.515 Y141.024 E33.47523
G1 X148.277 Y141.785 E33.51501
G1 X148.049 Y142.327 E33.54434
G1 X147.906 Y142.633 E33.56119
G1 X147.359 Y143.605 E33.61684
G1 X147.341 Y143.632 E33.61846
G1 X146.882 Y144.249 E33.65682
G1 X146.55 Y144.623 E33.68177
G1 X146.267 Y144.921 E33.70228
G1 X145.494 Y145.627 E33.75451
G1 X145.47 Y145.646 E33.75603
G1 X144.843 Y146.091 E33.79439
G1 X144.201 Y146.455 E33.83121
G1 X143.849 Y146.632 E33.85087
G1 X143.145 Y146.942 E33.88924
G1 X142.423 Y147.174 E33.92708
G1 X141.771 Y147.318 E33.96039
G1 X141.496 Y147.366 E33.97432
G1 X140.733 Y147.458 E34.01266
G1 X140.226 Y147.476 E34.03797
G1 X128.825 Y147.479 E34.60677
G1 X128.537 Y147.994 E34.63621
G1 X128.33 Y148.326 E34.65573
G1 X127.736 Y149.148 E34.70632
G1 X127.716 Y149.172 E34.70788
G1 X127.193 Y149.737 E34.74629
G1 X126.615 Y150.244 E34.78465
G1 X126.302 Y150.491 E34.80454
G1 X125.674 Y150.936 E34.84294
G1 X125.107 Y151.26 E34.87552
G1 X125.074 Y151.277 E34.87738
G1 X124.014 Y151.723 E34.93475
G1 X123.643 Y151.846 E34.95425
G1 X122.901 Y152.05 E34.99264
G1 X122.194 Y152.17 E35.02842
G1 X122.052 Y152.187 E35.03555
G1 X121.173 Y152.239 E35.07948
G1 X109.784 Y152.24 E35.64768
G1 X109.481 Y152.788 E35.67892
G1 X109.267 Y153.128 E35.69897
G1 X108.824 Y153.757 E35.73735
G1 X108.552 Y154.083 E35.75853
G1 X108.016 Y154.635 E35.79692
G1 X107.522 Y155.054 E35.82923
G1 X107.213 Y155.294 E35.84875
G1 X106.582 Y155.734 E35.88713
G1 X106.03 Y156.045 E35.91874
G1 X105.329 Y156.362 E35.95713
G1 X104.584 Y156.618 E35.99643
G1 X103.842 Y156.82 E36.03479
G1 X103.112 Y156.94 E36.0717
G1 X102.963 Y156.957 E36.07918
G1 X102.124 Y157.005 E36.12111
G1 X85.45 Y157.006 E36.95298
G1 X84.493 Y156.944 E37.00082
G1 X83.8 Y156.822 E37.03593
G1 X83.414 Y156.735 E37.05567
G1 X82.37 Y156.417 E37.11012
G1 X82.339 Y156.405 E37.11178
G1 X81.637 Y156.09 E37.15016
G1 X80.93 Y155.686 E37.19079
G1 X80.219 Y155.202 E37.2337
G1 X80.193 Y155.182 E37.23534
G1 X79.609 Y154.682 E37.27369
G1 X79.228 Y154.294 E37.30082
G1 X78.999 Y154.042 E37.31781
G1 X78.437 Y153.342 E37.36259
G1 X78.42 Y153.318 E37.36406
G1 X78.009 Y152.668 E37.40243
G1 X77.769 Y152.187 E37.42925
G1 X66.547 Y152.393 E37.98921
G1 X65.719 Y152.362 E38.03055
G1 X64.853 Y152.231 E38.07424
G1 X64.476 Y152.151 E38.09347
G1 X63.733 Y151.952 E38.13185
G1 X63.31 Y151.801 E38.15425
G1 X62.608 Y151.486 E38.19264
G1 X62.141 Y151.225 E38.21933
G1 X61.805 Y151.021 E38.23894
G1 X61.169 Y150.589 E38.2773
G1 X60.731 Y150.229 E38.30559
G1 X60.181 Y149.692 E38.34394
G1 X59.854 Y149.312 E38.36895
G1 X59.599 Y148.995 E38.38925
G1 X59.149 Y148.372 E38.42759
G1 X58.83 Y147.829 E38.45901
G1 X58.664 Y147.478 E38.47838
G1 X47.349 Y147.477 E39.04288
G1 X46.593 Y147.438 E39.08065
G1 X45.861 Y147.328 E39.11758
G1 X45.535 Y147.262 E39.13418
G1 X44.79 Y147.07 E39.17256
G1 X44.269 Y146.886 E39.20012
G1 X43.376 Y146.464 E39.2494
G1 X43.04 Y146.277 E39.26859
G1 X42.389 Y145.869 E39.30692
G1 X41.823 Y145.429 E39.34268
G1 X41.795 Y145.405 E39.34452
G1 X41.037 Y144.655 E39.39772
G1 X40.775 Y144.355 E39.41759
G1 X40.3 Y143.75 E39.45597
G1 X39.967 Y143.233 E39.48665
G1 X39.61 Y142.551 E39.52505
G1 X39.284 Y141.747 E39.56834
G1 X39.009 Y140.879 E39.61376
G1 X39.003 Y140.855 E39.615
G1 X38.813 Y139.742 E39.67133
G1 X38.792 Y139.515 E39.6827
G1 X38.761 Y138.834 E39.71671
G1 X38.755 Y99.996 E41.65435
G1 X38.764 Y99.825 E41.66289
G1 X38.753 Y84.127 E42.44607
G1 X38.785 Y83.43 E42.48088
G1 X38.935 Y82.477 E42.52901
G1 X39.02 Y82.099 E42.54834
G1 X39.339 Y81.051 E42.60299
G1 X39.351 Y81.02 E42.60465
G1 X39.666 Y80.318 E42.64304
G1 X39.986 Y79.754 E42.67539
G1 X40.204 Y79.407 E42.69583
G1 X40.646 Y78.778 E42.73419
G1 X40.922 Y78.447 E42.75569
G1 X41.458 Y77.895 E42.79407
G1 X41.972 Y77.46 E42.82767
G1 X42.278 Y77.224 E42.84695
G1 X42.91 Y76.787 E42.88528
G1 X43.441 Y76.489 E42.91566
G0 F1800 X43.624 Y76.844
G1 F1350 X44.627 Y76.423 E42.96993
G1 X44.992 Y76.302 E42.98911
G1 X45.714 Y76.104 E43.02647
G1 X46.412 Y75.99 E43.06175
G1 X46.563 Y75.973 E43.06933
G1 X47.345 Y75.929 E43.10841
G1 X64.022 Y75.926 E43.94043
G1 X64.679 Y75.957 E43.97324
G1 X65.6 Y76.103 E44.01976
G1 X65.973 Y76.188 E44.03885
G1 X66.945 Y76.485 E44.08956
G1 X66.976 Y76.497 E44.09121
G1 X67.658 Y76.804 E44.12853
G1 X68.181 Y77.103 E44.15858
G1 X68.519 Y77.316 E44.17851
G1 X69.13 Y77.748 E44.21585
G1 X69.626 Y78.18 E44.24866
G1 X69.649 Y78.202 E44.25025
G1 X70.329 Y78.954 E44.30083
G1 X70.574 Y79.268 E44.3207
G1 X71.002 Y79.881 E44.358
G1 X71.26 Y80.333 E44.38397
G1 X71.425 Y80.69 E44.40359
G1 X81.207 Y80.69 E44.89161
G1 X82.986 Y60.379 E45.90881
G1 X83.119 Y59.503 E45.95302
G1 X83.277 Y58.897 E45.98426
G1 X83.39 Y58.532 E46.00332
G1 X83.649 Y57.83 E46.04066
G1 X83.832 Y57.44 E46.06215
G1 X84.408 Y56.485 E46.11779
G1 X84.602 Y56.215 E46.13438
G1 X85.071 Y55.632 E46.17171
G1 X85.356 Y55.331 E46.19239
G1 X86.038 Y54.733 E46.23764
G1 X86.311 Y54.523 E46.25482
G1 X86.927 Y54.099 E46.29213
G1 X87.449 Y53.81 E46.3219
G1 X87.481 Y53.794 E46.32368
G1 X88.339 Y53.434 E46.3701
G1 X88.715 Y53.305 E46.38994
G1 X89.75 Y53.036 E46.44329
G1 X89.789 Y53.029 E46.44526
G1 X90.532 Y52.936 E46.48262
G1 X91.317 Y52.925 E46.52179
G1 X92.013 Y52.954 E46.55654
G1 X92.332 Y52.975 E46.57249
G1 X109.463 Y54.473 E47.43042
G1 X126.439 Y51.478 E48.29044
G1 X142.17 Y44.143 E49.15639
G1 X142.864 Y43.863 E49.19372
G1 X143.604 Y43.655 E49.23207
G1 X144.012 Y43.564 E49.25293
G1 X145.113 Y43.409 E49.3084
G1 X145.146 Y43.407 E49.31005
G1 X145.894 Y43.402 E49.34736
G1 X146.435 Y43.448 E49.37445
G1 X146.812 Y43.495 E49.39341
G1 X147.898 Y43.719 E49.44873
G1 X147.929 Y43.728 E49.45034
G1 X148.635 Y43.974 E49.48764
G1 X149.128 Y44.199 E49.51467
G1 X149.487 Y44.38 E49.53473
G1 X150.136 Y44.752 E49.57205
