;FLAVOR:Marlin
;TIME:3440
;Filament used: 1.5574m
;Layer height: 0.1
;MINX:54.695
;MINY:69.698
;MINZ:0.3
;MAXX:119.805
;MAXY:130.302
;MAXZ:2.5
;Generated with Cura_SteamEngine master
M140 S60
M105
M190 S60
M104 S215
M105
M109 S215
M82 ;absolute extrusion mode
G21 ;metric values
 G90 ;absolute positioning
 M82 ;set extruder to absolute mode
 M107 ;start with the fan off
 G28 X0 Y0 ;move X/Y to min endstops
 G28 Z0 ;move Z to min endstops
 G1 Z15.0 F120 ;move the platform down 15mm
 G92 E0 ;zero the extruded length
 G1 F200 E6 ;extrude 6 mm of feed stock
 G92 E0 ;zero the extruded length again
 G1 F120 
 ;Put printing message on LCD screen
 M117 Printing...
G92 E0
G92 E0
G1 F1500 E-6.5
;LAYER_COUNT:13
;LAYER:0
M107
G1 F600 Z1.3
G0 F1800 X57.683 Y71.457 Z1.3
;TYPE:SKIRT
G1 F600 Z0.3
G1 F1500 E0
G1 F1350 X58.319 Y70.99 E0.03937
G1 X58.999 Y70.589 E0.07875
G1 X59.717 Y70.259 E0.11817
G1 X60.464 Y70.004 E0.15755
G1 X61.233 Y69.825 E0.19694
G1 X62.017 Y69.725 E0.23638
G1 X62.611 Y69.702 E0.26603
G1 X86.371 Y69.698 E1.45142
G1 X87.159 Y69.738 E1.49079
G1 X87.517 Y69.724 E1.50866
G1 X88.111 Y69.701 E1.53832
G1 X111.883 Y69.698 E2.72431
G1 X112.672 Y69.738 E2.76372
G1 X113.452 Y69.857 E2.80309
G1 X114.217 Y70.055 E2.84251
G1 X114.957 Y70.329 E2.88188
G1 X115.667 Y70.677 E2.92133
G1 X116.337 Y71.094 E2.9607
G1 X116.962 Y71.577 E3.00011
G1 X117.399 Y71.983 E3.02987
G1 X117.516 Y72.1 E3.03812
G1 X118.046 Y72.686 E3.07754
G1 X118.513 Y73.322 E3.11691
G1 X118.914 Y74.002 E3.15629
G1 X119.244 Y74.72 E3.19571
G1 X119.499 Y75.467 E3.23509
G1 X119.678 Y76.236 E3.27448
G1 X119.778 Y77.02 E3.31392
G1 X119.801 Y77.614 E3.34357
G1 X119.805 Y122.38 E5.57696
G1 X119.765 Y123.169 E5.61637
G1 X119.646 Y123.95 E5.65579
G1 X119.448 Y124.714 E5.69516
G1 X119.174 Y125.455 E5.73458
G1 X118.826 Y126.164 E5.77398
G1 X118.409 Y126.834 E5.81335
G1 X117.926 Y127.459 E5.85276
G1 X117.52 Y127.896 E5.88252
G1 X117.403 Y128.013 E5.89077
G1 X116.817 Y128.543 E5.93019
G1 X116.181 Y129.01 E5.96956
G1 X115.501 Y129.411 E6.00894
G1 X114.783 Y129.741 E6.04837
G1 X114.036 Y129.996 E6.08775
G1 X113.267 Y130.175 E6.12714
G1 X112.483 Y130.275 E6.16657
G1 X111.889 Y130.298 E6.19622
G1 X88.129 Y130.302 E7.38162
G1 X87.341 Y130.262 E7.42098
G1 X86.983 Y130.276 E7.43885
G1 X86.389 Y130.299 E7.46851
G1 X62.617 Y130.302 E8.6545
G1 X61.828 Y130.262 E8.69391
G1 X61.048 Y130.143 E8.73328
G1 X60.283 Y129.945 E8.7727
G1 X59.543 Y129.671 E8.81207
G1 X58.833 Y129.323 E8.85152
G1 X58.163 Y128.906 E8.89089
G1 X57.538 Y128.423 E8.9303
G1 X57.101 Y128.017 E8.96006
G1 X56.984 Y127.9 E8.96831
G1 X56.454 Y127.314 E9.00773
G1 X55.987 Y126.678 E9.0471
G1 X55.586 Y125.998 E9.08648
G1 X55.256 Y125.28 E9.12591
G1 X55.001 Y124.533 E9.16529
G1 X54.822 Y123.764 E9.20468
G1 X54.722 Y122.98 E9.24411
G1 X54.699 Y122.386 E9.27376
G1 X54.695 Y77.62 E11.50715
G1 X54.735 Y76.831 E11.54656
G1 X54.854 Y76.05 E11.58598
G1 X55.052 Y75.286 E11.62535
G1 X55.326 Y74.545 E11.66477
G1 X55.674 Y73.836 E11.70417
G1 X56.091 Y73.166 E11.74354
G1 X56.574 Y72.541 E11.78295
G1 X56.98 Y72.104 E11.81271
G1 X57.097 Y71.987 E11.82096
G1 X57.683 Y71.457 E11.86038
G0 F1800 X57.951 Y71.755
G1 F1350 X58.573 Y71.302 E11.89877
G1 X59.238 Y70.916 E11.93713
G1 X59.94 Y70.601 E11.97552
G1 X60.671 Y70.361 E12.01391
G1 X61.422 Y70.198 E12.05225
G1 X62.187 Y70.114 E12.09064
G1 X62.611 Y70.102 E12.1118
G1 X86.371 Y70.098 E13.29719
G1 X87.139 Y70.138 E13.33556
G1 X87.271 Y70.159 E13.34223
G1 X88.111 Y70.101 E13.38424
G1 X111.883 Y70.098 E14.57023
G1 X112.651 Y70.138 E14.6086
G1 X113.411 Y70.257 E14.64697
G1 X114.154 Y70.455 E14.68534
G1 X114.873 Y70.729 E14.72372
G1 X115.56 Y71.075 E14.7621
G1 X116.206 Y71.492 E14.80046
G1 X116.807 Y71.973 E14.83887
G1 X117.234 Y72.382 E14.86836
G1 X117.748 Y72.954 E14.90673
G1 X118.201 Y73.576 E14.94512
G1 X118.587 Y74.241 E14.98348
G1 X118.902 Y74.943 E15.02187
G1 X119.142 Y75.674 E15.06025
G1 X119.305 Y76.425 E15.09859
G1 X119.389 Y77.19 E15.13699
G1 X119.401 Y77.614 E15.15815
G1 X119.405 Y122.38 E17.39153
G1 X119.365 Y123.148 E17.4299
G1 X119.246 Y123.908 E17.46828
G1 X119.048 Y124.652 E17.50669
G1 X118.774 Y125.37 E17.54503
G1 X118.427 Y126.057 E17.58343
G1 X118.011 Y126.704 E17.62181
G1 X117.53 Y127.304 E17.66017
G1 X117.121 Y127.731 E17.68967
G1 X116.549 Y128.245 E17.72804
G1 X115.927 Y128.698 E17.76643
G1 X115.262 Y129.084 E17.80479
G1 X114.56 Y129.399 E17.84317
G1 X113.829 Y129.639 E17.88156
G1 X113.078 Y129.802 E17.9199
G1 X112.313 Y129.886 E17.95829
G1 X111.889 Y129.898 E17.97946
G1 X88.129 Y129.902 E19.16485
G1 X87.361 Y129.862 E19.20322
G1 X87.229 Y129.841 E19.20988
G1 X86.389 Y129.899 E19.25189
G1 X62.617 Y129.902 E20.43788
G1 X61.849 Y129.862 E20.47625
G1 X61.089 Y129.743 E20.51463
G1 X60.346 Y129.545 E20.55299
G1 X59.627 Y129.271 E20.59138
G1 X58.94 Y128.925 E20.62975
G1 X58.294 Y128.508 E20.66811
G1 X57.693 Y128.027 E20.70652
G1 X57.266 Y127.618 E20.73602
G1 X56.752 Y127.046 E20.77438
G1 X56.299 Y126.424 E20.81277
G1 X55.913 Y125.759 E20.85113
G1 X55.598 Y125.057 E20.88952
G1 X55.358 Y124.326 E20.92791
G1 X55.195 Y123.575 E20.96625
G1 X55.111 Y122.81 E21.00464
G1 X55.099 Y122.386 E21.0258
G1 X55.095 Y77.62 E23.25919
G1 X55.135 Y76.852 E23.29756
G1 X55.254 Y76.092 E23.33593
G1 X55.452 Y75.348 E23.37434
G1 X55.726 Y74.63 E23.41269
G1 X56.073 Y73.943 E23.45108
G1 X56.489 Y73.296 E23.48946
G1 X56.97 Y72.696 E23.52782
G1 X57.379 Y72.269 E23.55732
G1 X57.951 Y71.755 E23.59569
G0 F1800 X58.219 Y72.052
G1 F1350 X58.825 Y71.615 E23.63296
G1 X59.475 Y71.244 E23.6703
G1 X60.161 Y70.945 E23.70764
G1 X60.875 Y70.721 E23.74497
G1 X61.608 Y70.574 E23.78227
G1 X62.611 Y70.502 E23.83244
G1 X86.371 Y70.498 E25.01783
G1 X87.118 Y70.538 E25.05515
G1 X87.265 Y70.562 E25.06258
G1 X88.111 Y70.501 E25.1049
G1 X111.883 Y70.498 E26.29089
G1 X112.63 Y70.538 E26.32821
G1 X113.369 Y70.657 E26.36555
G1 X114.09 Y70.855 E26.40286
G1 X114.786 Y71.128 E26.44015
G1 X115.45 Y71.474 E26.47751
G1 X116.072 Y71.889 E26.51481
G1 X116.834 Y72.548 E26.56508
G1 X116.951 Y72.665 E26.57333
G1 X117.451 Y73.222 E26.61067
G1 X117.888 Y73.828 E26.64795
G1 X118.259 Y74.478 E26.68529
G1 X118.558 Y75.164 E26.72262
G1 X118.782 Y75.878 E26.75995
G1 X118.929 Y76.611 E26.79725
G1 X119.001 Y77.614 E26.84742
G1 X119.005 Y122.38 E29.08081
G1 X118.965 Y123.127 E29.11813
G1 X118.846 Y123.866 E29.15547
G1 X118.648 Y124.587 E29.19277
G1 X118.375 Y125.284 E29.23012
G1 X118.029 Y125.947 E29.26743
G1 X117.614 Y126.569 E29.30473
G1 X116.955 Y127.331 E29.355
G1 X116.838 Y127.448 E29.36325
G1 X116.281 Y127.948 E29.40059
G1 X115.675 Y128.385 E29.43787
G1 X115.025 Y128.756 E29.47521
G1 X114.339 Y129.055 E29.51254
G1 X113.625 Y129.279 E29.54987
G1 X112.892 Y129.426 E29.58717
G1 X111.889 Y129.498 E29.63734
G1 X88.129 Y129.502 E30.82273
G1 X87.382 Y129.462 E30.86005
G1 X87.235 Y129.438 E30.86748
G1 X86.389 Y129.499 E30.9098
G1 X62.617 Y129.502 E32.09579
G1 X61.87 Y129.462 E32.13311
G1 X61.131 Y129.343 E32.17046
G1 X60.41 Y129.145 E32.20776
G1 X59.714 Y128.872 E32.24506
G1 X59.05 Y128.526 E32.28241
G1 X58.428 Y128.111 E32.31972
G1 X57.666 Y127.452 E32.36998
G1 X57.549 Y127.335 E32.37823
G1 X57.049 Y126.778 E32.41558
G1 X56.612 Y126.172 E32.45285
G1 X56.241 Y125.522 E32.49019
G1 X55.942 Y124.836 E32.52752
G1 X55.718 Y124.122 E32.56486
G1 X55.571 Y123.389 E32.60216
G1 X55.499 Y122.386 E32.65232
G1 X55.495 Y77.62 E34.88571
G1 X55.535 Y76.873 E34.92303
G1 X55.654 Y76.134 E34.96037
G1 X55.852 Y75.413 E34.99768
G1 X56.125 Y74.716 E35.03502
G1 X56.471 Y74.053 E35.07233
G1 X56.886 Y73.431 E35.10964
G1 X57.545 Y72.669 E35.1599
G1 X57.662 Y72.552 E35.16815
G1 X58.219 Y72.052 E35.2055
G0 F1800 X58.486 Y72.351
G1 F1350 X59.077 Y71.928 E35.24176
G1 X59.711 Y71.574 E35.27798
G1 X60.38 Y71.291 E35.31422
G1 X61.076 Y71.083 E35.35046
G1 X61.791 Y70.953 E35.38672
G1 X62.611 Y70.902 E35.42771
G1 X86.371 Y70.898 E36.6131
G1 X87.096 Y70.938 E36.64933
G1 X87.291 Y70.952 E36.65908
G1 X88.111 Y70.901 E36.70007
G1 X111.883 Y70.898 E37.88606
G1 X112.608 Y70.938 E37.92228
G1 X113.325 Y71.057 E37.95854
G1 X114.024 Y71.255 E37.99479
G1 X114.697 Y71.528 E38.03102
G1 X115.336 Y71.873 E38.06725
G1 X115.933 Y72.286 E38.10347
G1 X116.551 Y72.831 E38.14458
G1 X116.668 Y72.948 E38.15283
G1 X117.152 Y73.489 E38.18905
G1 X117.575 Y74.08 E38.22531
G1 X117.929 Y74.714 E38.26153
G1 X118.212 Y75.383 E38.29777
G1 X118.42 Y76.079 E38.33402
G1 X118.55 Y76.794 E38.37027
G1 X118.601 Y77.614 E38.41126
G1 X118.605 Y122.38 E40.64465
G1 X118.565 Y123.106 E40.68092
G1 X118.446 Y123.822 E40.71713
G1 X118.248 Y124.521 E40.75338
G1 X117.975 Y125.194 E40.78961
G1 X117.63 Y125.833 E40.82584
G1 X117.217 Y126.431 E40.8621
G1 X116.672 Y127.048 E40.90317
G1 X116.555 Y127.165 E40.91143
G1 X116.014 Y127.649 E40.94764
G1 X115.423 Y128.072 E40.9839
G1 X114.789 Y128.426 E41.02013
G1 X114.12 Y128.709 E41.05637
G1 X113.424 Y128.917 E41.09261
G1 X112.709 Y129.047 E41.12886
G1 X111.889 Y129.098 E41.16985
G1 X88.129 Y129.102 E42.35524
G1 X87.404 Y129.062 E42.39147
G1 X87.209 Y129.048 E42.40122
G1 X86.389 Y129.099 E42.44221
G1 X62.617 Y129.102 E43.6282
G1 X61.892 Y129.062 E43.66443
G1 X61.175 Y128.943 E43.70069
G1 X60.476 Y128.745 E43.73693
G1 X59.803 Y128.472 E43.77317
G1 X59.164 Y128.127 E43.8094
G1 X58.567 Y127.714 E43.84561
G1 X57.949 Y127.169 E43.88672
G1 X57.832 Y127.052 E43.89498
G1 X57.348 Y126.511 E43.93119
G1 X56.925 Y125.92 E43.96745
G1 X56.571 Y125.286 E44.00368
G1 X56.288 Y124.617 E44.03992
G1 X56.08 Y123.921 E44.07616
G1 X55.95 Y123.206 E44.11242
G1 X55.899 Y122.386 E44.15341
G1 X55.895 Y77.62 E46.38679
G1 X55.935 Y76.894 E46.42307
G1 X56.054 Y76.178 E46.45928
G1 X56.252 Y75.479 E46.49552
G1 X56.525 Y74.806 E46.53176
G1 X56.87 Y74.167 E46.56799
G1 X57.283 Y73.569 E46.60424
G1 X57.828 Y72.952 E46.64531
G1 X57.945 Y72.835 E46.65357
G1 X58.486 Y72.351 E46.68978
G0 F1800 X58.753 Y72.649
G1 F1350 X59.328 Y72.243 E46.7249
G1 X59.946 Y71.905 E46.76004
G1 X60.597 Y71.638 E46.79515
G1 X61.275 Y71.448 E46.83028
G1 X61.97 Y71.335 E46.86541
G1 X62.611 Y71.302 E46.89743
G1 X86.371 Y71.298 E48.08282
G1 X87.074 Y71.338 E48.11795
G1 X87.255 Y71.369 E48.12711
G1 X87.47 Y71.334 E48.13798
G1 X88.111 Y71.301 E48.17
G1 X111.883 Y71.298 E49.35599
G1 X112.586 Y71.338 E49.39112
G1 X113.28 Y71.457 E49.42625
G1 X113.956 Y71.654 E49.46138
G1 X114.605 Y71.927 E49.4965
G1 X115.219 Y72.271 E49.53162
G1 X115.79 Y72.683 E49.56675
G1 X116.268 Y73.114 E49.59886
G1 X116.385 Y73.231 E49.60711
G1 X116.854 Y73.756 E49.64223
G1 X117.26 Y74.331 E49.67735
G1 X117.598 Y74.949 E49.71249
G1 X117.865 Y75.6 E49.7476
G1 X118.055 Y76.278 E49.78272
G1 X118.168 Y76.973 E49.81785
G1 X118.201 Y77.614 E49.84988
G1 X118.205 Y122.38 E52.08326
G1 X118.165 Y123.083 E52.11839
G1 X118.046 Y123.777 E52.15352
G1 X117.849 Y124.453 E52.18865
G1 X117.576 Y125.102 E52.22377
G1 X117.232 Y125.716 E52.25889
G1 X116.82 Y126.287 E52.29402
G1 X116.389 Y126.765 E52.32613
G1 X116.272 Y126.882 E52.33438
G1 X115.747 Y127.351 E52.3695
G1 X115.172 Y127.757 E52.40462
G1 X114.554 Y128.095 E52.43976
G1 X113.903 Y128.362 E52.47487
G1 X113.225 Y128.552 E52.50999
G1 X112.53 Y128.665 E52.54512
G1 X111.889 Y128.698 E52.57715
G1 X88.129 Y128.702 E53.76254
G1 X87.426 Y128.662 E53.79767
G1 X87.245 Y128.631 E53.80683
G1 X87.03 Y128.666 E53.8177
G1 X86.389 Y128.699 E53.84972
G1 X62.617 Y128.702 E55.03571
G1 X61.914 Y128.662 E55.07084
G1 X61.22 Y128.543 E55.10597
G1 X60.544 Y128.346 E55.14109
G1 X59.895 Y128.073 E55.17622
G1 X59.281 Y127.729 E55.21133
G1 X58.71 Y127.317 E55.24646
G1 X58.232 Y126.886 E55.27857
G1 X58.115 Y126.769 E55.28683
G1 X57.646 Y126.244 E55.32195
G1 X57.24 Y125.669 E55.35707
G1 X56.902 Y125.051 E55.39221
G1 X56.635 Y124.4 E55.42731
G1 X56.445 Y123.722 E55.46244
G1 X56.332 Y123.027 E55.49757
G1 X56.299 Y122.386 E55.52959
G1 X56.295 Y77.62 E57.76298
G1 X56.335 Y76.917 E57.79811
G1 X56.454 Y76.223 E57.83324
G1 X56.651 Y75.547 E57.86837
G1 X56.924 Y74.898 E57.90349
G1 X57.268 Y74.284 E57.9386
G1 X57.68 Y73.713 E57.97373
G1 X58.111 Y73.235 E58.00584
G1 X58.228 Y73.118 E58.0141
G1 X58.753 Y72.649 E58.04922
G0 F1800 X59.02 Y72.948
G1 F1350 X59.578 Y72.559 E58.08316
G1 X60.178 Y72.237 E58.11713
G1 X60.812 Y71.988 E58.15111
G1 X61.471 Y71.815 E58.1851
G1 X62.145 Y71.721 E58.21905
G1 X62.611 Y71.702 E58.24232
G1 X86.371 Y71.698 E59.42771
G1 X87.051 Y71.738 E59.4617
G1 X87.256 Y71.774 E59.47208
G1 X88.111 Y71.701 E59.51489
G1 X111.883 Y71.698 E60.70088
G1 X112.563 Y71.738 E60.73487
G1 X113.233 Y71.857 E60.76882
G1 X113.885 Y72.054 E60.8028
G1 X114.509 Y72.326 E60.83676
G1 X115.097 Y72.669 E60.87072
G1 X115.641 Y73.079 E60.9047
G1 X116.102 Y73.514 E60.93633
G1 X116.555 Y74.023 E60.97032
G1 X116.944 Y74.581 E61.00426
G1 X117.266 Y75.181 E61.03823
G1 X117.515 Y75.815 E61.07221
G1 X117.688 Y76.474 E61.1062
G1 X117.782 Y77.148 E61.14015
G1 X117.801 Y77.614 E61.16342
G1 X117.805 Y122.38 E63.39681
G1 X117.765 Y123.06 E63.43079
G1 X117.646 Y123.731 E63.46479
G1 X117.449 Y124.382 E63.49872
G1 X117.177 Y125.006 E63.53268
G1 X116.833 Y125.594 E63.56667
G1 X116.424 Y126.138 E63.60063
G1 X115.989 Y126.599 E63.63225
G1 X115.48 Y127.052 E63.66624
G1 X114.922 Y127.441 E63.70018
G1 X114.322 Y127.763 E63.73415
G1 X113.688 Y128.012 E63.76813
G1 X113.029 Y128.185 E63.80213
G1 X112.355 Y128.279 E63.83608
G1 X111.889 Y128.298 E63.85934
G1 X88.129 Y128.302 E65.04474
G1 X87.449 Y128.262 E65.07872
G1 X87.244 Y128.226 E65.0891
G1 X86.389 Y128.299 E65.13192
G1 X62.617 Y128.302 E66.31791
G1 X61.937 Y128.262 E66.35189
G1 X61.267 Y128.143 E66.38584
G1 X60.615 Y127.946 E66.41982
G1 X59.991 Y127.674 E66.45378
G1 X59.403 Y127.331 E66.48774
G1 X58.859 Y126.921 E66.52173
G1 X58.398 Y126.486 E66.55335
G1 X57.945 Y125.977 E66.58734
G1 X57.556 Y125.419 E66.62128
G1 X57.234 Y124.819 E66.65525
G1 X56.985 Y124.185 E66.68923
G1 X56.812 Y123.526 E66.72323
G1 X56.718 Y122.852 E66.75718
G1 X56.699 Y122.386 E66.78045
G1 X56.695 Y77.62 E69.01383
G1 X56.735 Y76.94 E69.04781
G1 X56.854 Y76.269 E69.08181
G1 X57.051 Y75.618 E69.11575
G1 X57.323 Y74.994 E69.14971
G1 X57.667 Y74.406 E69.18369
G1 X58.076 Y73.862 E69.21765
G1 X58.511 Y73.401 E69.24927
G1 X59.02 Y72.948 E69.28327
G0 F1800 X59.286 Y73.248
G1 F1350 X59.827 Y72.876 E69.31602
G1 X60.409 Y72.572 E69.34878
G1 X61.024 Y72.341 E69.38156
G1 X61.663 Y72.186 E69.41436
G1 X62.611 Y72.102 E69.46184
G1 X86.371 Y72.098 E70.64723
G1 X87.027 Y72.138 E70.68002
G1 X87.243 Y72.178 E70.69098
G1 X88.111 Y72.101 E70.73446
G1 X111.883 Y72.098 E71.92045
G1 X112.539 Y72.138 E71.95323
G1 X113.185 Y72.257 E71.98601
G1 X113.812 Y72.454 E72.01879
G1 X114.41 Y72.725 E72.05155
G1 X114.971 Y73.067 E72.08433
G1 X115.702 Y73.68 E72.13192
G1 X115.819 Y73.797 E72.14018
G1 X116.255 Y74.289 E72.17298
G1 X116.627 Y74.83 E72.20573
G1 X116.931 Y75.412 E72.23849
G1 X117.162 Y76.027 E72.27127
G1 X117.317 Y76.666 E72.30407
G1 X117.401 Y77.615 E72.3516
G1 X117.405 Y122.381 E74.58499
G1 X117.365 Y123.036 E74.61772
G1 X117.246 Y123.682 E74.6505
G1 X117.049 Y124.309 E74.68328
G1 X116.778 Y124.907 E74.71604
G1 X116.435 Y125.468 E74.74885
G1 X115.823 Y126.199 E74.79641
G1 X115.706 Y126.316 E74.80466
G1 X115.214 Y126.752 E74.83746
G1 X114.673 Y127.124 E74.87022
G1 X114.091 Y127.428 E74.90298
G1 X113.476 Y127.659 E74.93575
G1 X112.837 Y127.814 E74.96855
G1 X111.889 Y127.898 E75.01604
G1 X88.129 Y127.902 E76.20143
G1 X87.473 Y127.862 E76.23422
G1 X87.257 Y127.822 E76.24518
G1 X86.389 Y127.899 E76.28865
G1 X62.617 Y127.902 E77.47464
G1 X61.961 Y127.862 E77.50743
G1 X61.315 Y127.743 E77.5402
G1 X60.688 Y127.546 E77.57299
G1 X60.09 Y127.275 E77.60574
G1 X59.529 Y126.933 E77.63852
G1 X58.798 Y126.32 E77.68612
G1 X58.681 Y126.203 E77.69437
G1 X58.245 Y125.711 E77.72717
G1 X57.873 Y125.17 E77.75993
G1 X57.569 Y124.588 E77.79269
G1 X57.338 Y123.973 E77.82546
G1 X57.183 Y123.334 E77.85827
G1 X57.099 Y122.385 E77.9058
G1 X57.095 Y77.619 E80.13918
G1 X57.135 Y76.964 E80.17192
G1 X57.254 Y76.318 E80.20469
G1 X57.451 Y75.691 E80.23748
G1 X57.722 Y75.093 E80.27024
G1 X58.065 Y74.532 E80.30304
G1 X58.677 Y73.801 E80.3506
G1 X58.794 Y73.684 E80.35886
G1 X59.286 Y73.248 E80.39166
G0 F1800 X59.551 Y73.549
