;FLAVOR:Marlin
;TIME:9900
;Filament used: 4.21617m
;Layer height: 0.1
;MINX:38.356
;MINY:42.603
;MINZ:0.3
;MAXX:161.646
;MAXY:157.406
;MAXZ:3
;Generated with Cura_SteamEngine master
M140 S60
M105
M190 S60
M104 S215
M105
M109 S215
M82 ;absolute extrusion mode
G21 ;metric values
 G90 ;absolute positioning
 M82 ;set extruder to absolute mode
 M107 ;start with the fan off
 G28 X0 Y0 ;move X/Y to min endstops
 G28 Z0 ;move Z to min endstops
 G1 Z15.0 F120 ;move the platform down 15mm
 G92 E0 ;zero the extruded length
 G1 F200 E6 ;extrude 6 mm of feed stock
 G92 E0 ;zero the extruded length again
 G1 F120 
 ;Put printing message on LCD screen
 M117 Printing...
G92 E0
G92 E0
G1 F1500 E-6.5
;LAYER_COUNT:28
;LAYER:0
M107
G1 F600 Z1.3
G0 F1800 X47.871 Y45.376 Z1.3
;TYPE:SKIRT
G1 F600 Z0.3
G1 F1500 E0
G1 F1350 X48.426 Y44.843 E0.03839
G1 X48.449 Y44.823 E0.03991
G1 X49.335 Y44.157 E0.09521
G1 X49.657 Y43.949 E0.11433
G1 X50.341 Y43.555 E0.15372
G1 X50.818 Y43.331 E0.18001
G1 X51.557 Y43.054 E0.21938
G1 X52.093 Y42.905 E0.24714
G1 X52.475 Y42.813 E0.26674
G1 X53.251 Y42.667 E0.30613
G1 X53.88 Y42.607 E0.33766
G1 X53.917 Y42.605 E0.3395
G1 X54.707 Y42.603 E0.37892
G1 X55.221 Y42.644 E0.40464
G1 X55.616 Y42.689 E0.42448
G1 X56.395 Y42.818 E0.46387
G1 X57.248 Y43.055 E0.50804
G1 X57.386 Y43.102 E0.51531
G1 X58.167 Y43.416 E0.55731
G1 X73.816 Y50.711 E1.4187
G1 X90.572 Y53.667 E2.26757
G1 X108.016 Y52.142 E3.14118
G1 X108.717 Y52.112 E3.17618
G1 X109.888 Y52.2 E3.23477
G1 X110.428 Y52.282 E3.26202
G1 X111.202 Y52.44 E3.30143
G1 X111.834 Y52.632 E3.33438
G1 X111.874 Y52.646 E3.3365
G1 X112.605 Y52.944 E3.37588
G1 X113.385 Y53.365 E3.4201
G1 X113.684 Y53.549 E3.43762
G1 X114.564 Y54.178 E3.49158
G1 X114.587 Y54.197 E3.49307
G1 X115.169 Y54.731 E3.53248
G1 X115.674 Y55.282 E3.56976
G1 X116.33 Y56.133 E3.62337
G1 X116.348 Y56.16 E3.62499
G1 X116.752 Y56.839 E3.66441
G1 X117.083 Y57.529 E3.70259
G1 X117.377 Y58.262 E3.74199
G1 X117.648 Y59.263 E3.79373
G1 X117.696 Y59.503 E3.80594
G1 X117.817 Y60.353 E3.84877
G1 X119.526 Y79.89 E4.8272
G1 X128.09 Y79.89 E5.25446
G1 X128.494 Y79.205 E5.29413
G1 X129.197 Y78.255 E5.3531
G1 X129.216 Y78.233 E5.35455
G1 X129.762 Y77.662 E5.39396
G1 X130.146 Y77.322 E5.41955
G1 X130.413 Y77.101 E5.43684
G1 X131.046 Y76.629 E5.47623
G1 X131.6 Y76.29 E5.50864
G1 X132.603 Y75.819 E5.56392
G1 X132.971 Y75.677 E5.5836
G1 X133.833 Y75.401 E5.62876
G1 X134.606 Y75.24 E5.66815
G1 X135.318 Y75.159 E5.7039
G1 X136.049 Y75.125 E5.74041
G1 X152.663 Y75.129 E6.56928
G1 X153.285 Y75.154 E6.60034
G1 X154.069 Y75.254 E6.63977
G1 X154.837 Y75.423 E6.679
G1 X155.923 Y75.762 E6.73576
G1 X155.956 Y75.775 E6.73753
G1 X156.675 Y76.101 E6.77692
G1 X157.279 Y76.448 E6.81167
G1 X157.608 Y76.657 E6.83112
G1 X158.253 Y77.114 E6.87056
G1 X158.748 Y77.539 E6.9031
G1 X158.778 Y77.567 E6.90515
G1 X159.327 Y78.134 E6.94453
G1 X159.739 Y78.646 E6.97731
G1 X159.998 Y78.998 E6.99912
G1 X160.433 Y79.657 E7.03851
G1 X160.673 Y80.095 E7.06343
G1 X160.997 Y80.815 E7.10282
G1 X161.283 Y81.694 E7.14894
G1 X161.392 Y82.113 E7.17053
G1 X161.592 Y83.183 E7.22484
G1 X161.595 Y83.209 E7.22615
G1 X161.646 Y84.103 E7.27082
G1 X161.646 Y92.116 E7.67059
G1 X161.636 Y99.819 E8.0549
G1 X161.645 Y99.996 E8.06374
G1 X161.638 Y138.887 E10.00402
G1 X161.601 Y139.647 E10.04198
G1 X161.454 Y140.584 E10.0893
G1 X161.371 Y140.961 E10.10856
G1 X161.162 Y141.723 E10.14798
G1 X161.015 Y142.131 E10.16961
G1 X160.693 Y142.852 E10.20901
G1 X160.341 Y143.471 E10.24454
G1 X160.125 Y143.814 E10.26476
G1 X159.517 Y144.651 E10.31637
G1 X159.497 Y144.675 E10.31793
G1 X158.962 Y145.256 E10.35733
G1 X158.284 Y145.847 E10.40221
G1 X157.977 Y146.085 E10.42159
G1 X157.329 Y146.536 E10.46097
G1 X156.77 Y146.854 E10.49306
G1 X156.737 Y146.871 E10.49491
G1 X156.018 Y147.197 E10.5343
G1 X155.256 Y147.462 E10.57455
G1 X154.495 Y147.673 E10.61395
G1 X153.673 Y147.81 E10.65552
G1 X153.523 Y147.827 E10.66305
G1 X152.645 Y147.877 E10.70693
G1 X141.587 Y147.878 E11.25861
G1 X141.255 Y148.457 E11.29191
G1 X141.046 Y148.783 E11.31123
G1 X140.587 Y149.425 E11.3506
G1 X140.219 Y149.855 E11.37884
G1 X139.375 Y150.652 E11.43675
G1 X139.104 Y150.872 E11.45417
G1 X138.467 Y151.338 E11.49355
G1 X137.86 Y151.698 E11.52875
G1 X136.857 Y152.15 E11.58364
G1 X136.474 Y152.291 E11.604
G1 X135.72 Y152.526 E11.6434
G1 X134.693 Y152.717 E11.69552
G1 X134.498 Y152.74 E11.70532
G1 X133.452 Y152.793 E11.75757
G1 X132.202 Y152.772 E11.81994
G1 X122.477 Y152.592 E12.30521
G1 X122.023 Y153.353 E12.34941
G1 X121.568 Y153.998 E12.38879
G1 X121.278 Y154.347 E12.41143
G1 X120.729 Y154.915 E12.45084
G1 X120.18 Y155.381 E12.48677
G1 X119.871 Y155.62 E12.50626
G1 X119.223 Y156.071 E12.54565
G1 X118.638 Y156.401 E12.57916
G1 X117.919 Y156.727 E12.61854
G1 X117.155 Y156.992 E12.65889
G1 X116.394 Y157.202 E12.69827
G1 X115.574 Y157.339 E12.73975
G1 X115.423 Y157.356 E12.74733
G1 X114.55 Y157.405 E12.79095
G1 X97.876 Y157.406 E13.62282
G1 X97.148 Y157.372 E13.65918
G1 X96.158 Y157.217 E13.70917
G1 X95.781 Y157.133 E13.72844
G1 X94.661 Y156.794 E13.78683
G1 X94.63 Y156.782 E13.78848
G1 X93.909 Y156.46 E13.82788
G1 X93.179 Y156.046 E13.86975
G1 X92.521 Y155.61 E13.90913
G1 X92.088 Y155.266 E13.93672
G1 X91.511 Y154.726 E13.97615
G1 X90.971 Y154.119 E14.01668
G1 X90.485 Y153.496 E14.0561
G1 X90.051 Y152.803 E14.09689
G1 X89.972 Y152.64 E14.10593
G1 X78.829 Y152.639 E14.66186
G1 X77.994 Y152.594 E14.70357
G1 X77.272 Y152.484 E14.74001
G1 X76.949 Y152.419 E14.75645
G1 X76.184 Y152.224 E14.79583
G1 X75.773 Y152.084 E14.8175
G1 X75.046 Y151.775 E14.85691
G1 X74.328 Y151.389 E14.89758
G1 X73.658 Y150.971 E14.93697
G1 X73.145 Y150.581 E14.96912
G1 X73.116 Y150.557 E14.971
G1 X72.534 Y150.023 E15.01041
G1 X72.193 Y149.655 E15.03544
G1 X71.934 Y149.356 E15.05517
G1 X71.448 Y148.734 E15.09456
G1 X71.104 Y148.198 E15.12633
G1 X70.935 Y147.878 E15.14438
G1 X59.789 Y147.877 E15.70046
G1 X59.028 Y147.84 E15.73847
G1 X58.089 Y147.692 E15.7859
G1 X57.717 Y147.61 E15.8049
G1 X56.955 Y147.401 E15.84432
G1 X56.469 Y147.223 E15.87014
G1 X55.752 Y146.893 E15.90952
G1 X55.206 Y146.579 E15.94095
G1 X54.865 Y146.364 E15.96106
G1 X54.219 Y145.91 E16.00045
G1 X53.847 Y145.6 E16.02461
G1 X53.281 Y145.049 E16.06402
G1 X52.831 Y144.517 E16.09878
G1 X52.585 Y144.199 E16.11884
G1 X52.134 Y143.55 E16.15827
G1 X51.82 Y142.998 E16.18995
G1 X51.803 Y142.965 E16.1918
G1 X51.477 Y142.246 E16.23119
G1 X51.261 Y141.619 E16.26427
G1 X51.138 Y141.206 E16.28577
G1 X50.952 Y140.439 E16.32515
G1 X50.84 Y139.61 E16.36688
G1 X50.828 Y139.462 E16.37429
G1 X50.802 Y138.835 E16.4056
G1 X50.78 Y78.203 E19.43054
G1 X43.572 Y74.843 E19.8273
G1 X42.874 Y74.473 E19.86672
G1 X42.446 Y74.199 E19.89207
G1 X42.119 Y73.974 E19.91187
G1 X41.492 Y73.494 E19.95127
G1 X41 Y73.038 E19.98473
G1 X40.47 Y72.452 E20.02415
G1 X40.153 Y72.036 E20.05025
G1 X39.921 Y71.709 E20.07025
G1 X39.498 Y71.043 E20.10961
G1 X39.25 Y70.569 E20.1363
G1 X38.941 Y69.842 E20.17571
G1 X38.716 Y69.12 E20.21344
G1 X38.607 Y68.7 E20.23509
G1 X38.448 Y67.927 E20.27446
G1 X38.38 Y67.334 E20.30424
G1 X38.356 Y66.545 E20.34362
G1 X38.407 Y65.798 E20.38098
G1 X38.454 Y65.396 E20.40117
G1 X38.585 Y64.618 E20.44053
G1 X38.874 Y63.626 E20.49208
G1 X38.939 Y63.448 E20.50153
G1 X39.197 Y62.827 E20.53508
G1 X46.221 Y47.766 E21.36418
G1 X46.707 Y46.879 E21.41464
G1 X47.117 Y46.292 E21.45036
G1 X47.359 Y45.977 E21.47018
G1 X47.871 Y45.376 E21.50957
G0 F1800 X48.175 Y45.636
G1 F1350 X48.711 Y45.125 E21.54651
G1 X49.552 Y44.493 E21.599
G1 X49.874 Y44.285 E21.61812
G1 X50.541 Y43.902 E21.65649
G1 X50.977 Y43.698 E21.68051
G1 X51.697 Y43.429 E21.71885
G1 X52.186 Y43.294 E21.74416
G1 X52.568 Y43.202 E21.76377
G1 X53.324 Y43.061 E21.80213
G1 X53.939 Y43.005 E21.83294
G1 X54.708 Y43.003 E21.87131
G1 X55.571 Y43.087 E21.91457
G1 X56.329 Y43.213 E21.9529
G1 X57.119 Y43.434 E21.99383
G1 X57.257 Y43.481 E22.0011
G1 X57.998 Y43.779 E22.04095
G1 X73.694 Y51.096 E22.90493
G1 X90.552 Y54.07 E23.75897
G1 X108.051 Y52.54 E24.63533
G1 X108.717 Y52.512 E24.66859
G1 X109.828 Y52.596 E24.72417
G1 X110.368 Y52.678 E24.75142
G1 X111.121 Y52.833 E24.78978
G1 X111.702 Y53.009 E24.82006
G1 X111.742 Y53.023 E24.82218
G1 X112.453 Y53.315 E24.86052
G1 X113.175 Y53.706 E24.90149
G1 X113.474 Y53.89 E24.919
G1 X114.309 Y54.487 E24.97021
G1 X114.332 Y54.506 E24.9717
G1 X115.154 Y55.299 E25.02868
G1 X115.375 Y55.548 E25.04529
G1 X115.997 Y56.355 E25.09613
G1 X116.015 Y56.382 E25.09775
G1 X116.408 Y57.044 E25.13615
G1 X116.72 Y57.696 E25.17222
G1 X117.005 Y58.41 E25.21057
G1 X117.255 Y59.342 E25.25871
G1 X117.303 Y59.582 E25.27092
G1 X117.419 Y60.388 E25.31155
G1 X119.16 Y80.29 E26.30826
G1 X128.325 Y80.29 E26.7655
G1 X128.622 Y79.754 E26.79607
G1 X128.833 Y79.418 E26.81587
G1 X129.5 Y78.516 E26.87183
G1 X129.519 Y78.494 E26.87328
G1 X130.051 Y77.939 E26.91164
G1 X130.668 Y77.409 E26.95222
G1 X131.285 Y76.95 E26.99058
G1 X131.795 Y76.639 E27.02039
G1 X132.747 Y76.192 E27.07286
G1 X133.115 Y76.05 E27.09254
G1 X133.934 Y75.788 E27.13544
G1 X134.687 Y75.632 E27.1738
G1 X135.355 Y75.557 E27.20734
G1 X136.049 Y75.525 E27.242
G1 X152.663 Y75.529 E28.07087
G1 X153.255 Y75.553 E28.10043
G1 X154.369 Y75.725 E28.15667
G1 X154.746 Y75.813 E28.17598
G1 X155.776 Y76.134 E28.22981
G1 X155.809 Y76.147 E28.23158
G1 X156.509 Y76.466 E28.26996
G1 X157.065 Y76.786 E28.30196
G1 X157.394 Y76.995 E28.32141
G1 X158.021 Y77.44 E28.35977
G1 X158.475 Y77.831 E28.38966
G1 X158.505 Y77.859 E28.39171
G1 X159.039 Y78.413 E28.43009
G1 X159.416 Y78.883 E28.46015
G1 X159.675 Y79.235 E28.48196
G1 X160.098 Y79.878 E28.52035
G1 X160.317 Y80.278 E28.54311
G1 X160.632 Y80.979 E28.58145
G1 X160.896 Y81.795 E28.62424
G1 X161.005 Y82.214 E28.64584
G1 X161.194 Y83.229 E28.69734
G1 X161.197 Y83.255 E28.69865
G1 X161.246 Y84.103 E28.74103
G1 X161.246 Y92.115 E29.14075
G1 X161.236 Y99.814 E29.52485
G1 X161.245 Y99.996 E29.53394
G1 X161.238 Y138.887 E31.47422
G1 X161.203 Y139.609 E31.51029
G1 X161.063 Y140.498 E31.55519
G1 X160.98 Y140.875 E31.57445
G1 X160.654 Y141.955 E31.63073
G1 X160.642 Y141.986 E31.63239
G1 X160.327 Y142.688 E31.67077
G1 X160.003 Y143.258 E31.70348
G1 X159.787 Y143.601 E31.72371
G1 X159.21 Y144.395 E31.77267
G1 X159.19 Y144.419 E31.77423
G1 X158.667 Y144.984 E31.81264
G1 X158.039 Y145.53 E31.85416
G1 X157.732 Y145.768 E31.87354
G1 X157.1 Y146.207 E31.91193
G1 X156.554 Y146.515 E31.94321
G1 X155.499 Y146.959 E32.00031
G1 X155.129 Y147.082 E32.01976
G1 X154.388 Y147.287 E32.05812
G1 X153.628 Y147.413 E32.09656
G1 X153.478 Y147.43 E32.10409
G1 X152.645 Y147.477 E32.14571
G1 X141.339 Y147.478 E32.70977
G1 X141.275 Y147.62 E32.71754
G1 X140.919 Y148.241 E32.75325
G1 X140.71 Y148.567 E32.77257
G1 X140.261 Y149.192 E32.81097
G1 X139.924 Y149.586 E32.83683
G1 X139.123 Y150.341 E32.89175
G1 X138.852 Y150.561 E32.90916
G1 X138.23 Y151.014 E32.94755
G1 X137.67 Y151.345 E32.98001
G1 X136.719 Y151.774 E33.03206
G1 X136.336 Y151.915 E33.05242
G1 X135.601 Y152.143 E33.09081
G1 X134.646 Y152.32 E33.13927
G1 X134.451 Y152.343 E33.14906
G1 X133.458 Y152.393 E33.19867
G1 X132.21 Y152.372 E33.26094
G1 X122.243 Y152.187 E33.75828
G1 X122.226 Y152.226 E33.7604
G1 X121.896 Y152.805 E33.79365
G1 X121.685 Y153.139 E33.81336
G1 X120.998 Y154.06 E33.87069
G1 X120.977 Y154.084 E33.87228
G1 X120.441 Y154.636 E33.91066
G1 X119.935 Y155.064 E33.94373
G1 X119.626 Y155.303 E33.96322
G1 X118.994 Y155.742 E34.00161
G1 X118.455 Y156.045 E34.03246
G1 X117.395 Y156.491 E34.08983
G1 X117.03 Y156.612 E34.10901
G1 X116.288 Y156.816 E34.14741
G1 X115.529 Y156.942 E34.18579
G1 X115.378 Y156.959 E34.19337
G1 X114.55 Y157.005 E34.23475
G1 X97.876 Y157.006 E35.06661
G1 X97.184 Y156.974 E35.10118
G1 X96.245 Y156.827 E35.14859
G1 X95.868 Y156.743 E35.16786
G1 X94.806 Y156.421 E35.22323
G1 X94.775 Y156.409 E35.22489
G1 X94.073 Y156.094 E35.26327
G1 X93.383 Y155.702 E35.30287
G1 X92.742 Y155.277 E35.34124
G1 X92.346 Y154.961 E35.36651
G1 X91.53 Y154.154 E35.42377
G1 X91.273 Y153.857 E35.44336
G1 X90.801 Y153.25 E35.48172
G1 X90.4 Y152.609 E35.51945
G1 X90.224 Y152.24 E35.53984
G1 X78.829 Y152.239 E36.10834
G1 X78.036 Y152.196 E36.14796
G1 X77.351 Y152.092 E36.18253
G1 X77.028 Y152.027 E36.19897
G1 X75.941 Y151.72 E36.25532
G1 X75.911 Y151.709 E36.25691
G1 X74.863 Y151.229 E36.31442
G1 X74.523 Y151.04 E36.33383
G1 X73.871 Y150.632 E36.3722
G1 X73.4 Y150.273 E36.40175
G1 X73.371 Y150.249 E36.40362
G1 X72.805 Y149.728 E36.442
G1 X72.237 Y149.094 E36.48447
G1 X71.764 Y148.487 E36.52286
G1 X71.448 Y147.995 E36.55204
G1 X71.177 Y147.478 E36.58116
G1 X59.789 Y147.477 E37.14931
G1 X59.066 Y147.442 E37.18542
G1 X58.175 Y147.302 E37.23042
G1 X57.803 Y147.22 E37.24942
G1 X57.062 Y147.015 E37.28778
G1 X56.618 Y146.852 E37.31138
G1 X55.919 Y146.529 E37.34979
G1 X55.419 Y146.241 E37.37858
G1 X55.078 Y146.026 E37.39869
G1 X54.45 Y145.582 E37.43706
G1 X54.111 Y145.299 E37.45909
G1 X53.561 Y144.762 E37.49744
G1 X53.147 Y144.272 E37.52945
G1 X52.901 Y143.954 E37.54951
G1 X52.463 Y143.322 E37.58787
G1 X52.159 Y142.782 E37.61879
G1 X51.842 Y142.081 E37.65717
G1 X51.645 Y141.505 E37.68754
G1 X51.522 Y141.092 E37.70904
G1 X51.341 Y140.345 E37.74738
G1 X51.238 Y139.578 E37.78599
G1 X51.226 Y139.43 E37.7934
G1 X51.202 Y138.835 E37.82311
G1 X51.179 Y77.947 E40.86083
G1 X43.741 Y74.48 E41.27024
G1 X43.061 Y74.119 E41.30865
G1 X42.345 Y73.644 E41.35152
G1 X41.735 Y73.176 E41.38988
G1 X41.282 Y72.756 E41.4207
G1 X40.768 Y72.184 E41.45906
G1 X40.248 Y71.478 E41.50281
G1 X39.836 Y70.828 E41.5412
G1 X39.61 Y70.394 E41.56561
G1 X39.31 Y69.686 E41.60398
G1 X39.103 Y69.02 E41.63877
G1 X38.994 Y68.6 E41.66042
G1 X38.84 Y67.846 E41.69881
G1 X38.778 Y67.302 E41.72613
G1 X38.756 Y66.533 E41.76451
G1 X38.804 Y65.845 E41.79892
G1 X38.851 Y65.443 E41.81911
G1 X38.98 Y64.684 E41.85752
G1 X39.25 Y63.764 E41.90535
G1 X39.315 Y63.586 E41.91481
G1 X39.559 Y62.996 E41.94666
G1 X46.583 Y47.935 E42.77576
G1 X47.045 Y47.092 E42.82371
G1 X47.434 Y46.536 E42.85757
G1 X47.676 Y46.221 E42.87739
G1 X48.175 Y45.636 E42.91575
G0 F1800 X48.48 Y45.896
G1 F1350 X48.974 Y45.427 E42.94973
G1 X49.769 Y44.829 E42.99936
G1 X50.091 Y44.621 E43.01849
G1 X50.74 Y44.249 E43.05581
G1 X51.136 Y44.065 E43.07759
G1 X51.837 Y43.805 E43.11489
G1 X52.662 Y43.591 E43.15742
G1 X53.398 Y43.455 E43.19476
G1 X53.96 Y43.404 E43.22291
G1 X54.708 Y43.404 E43.26023
G1 X55.525 Y43.484 E43.30118
G1 X56.263 Y43.608 E43.33852
G1 X56.99 Y43.813 E43.3762
G1 X57.128 Y43.86 E43.38348
G1 X57.829 Y44.141 E43.42115
G1 X73.571 Y51.479 E44.28766
G1 X90.54 Y54.473 E45.14732
G1 X108.086 Y52.939 E46.02604
G1 X108.717 Y52.912 E46.05755
G1 X109.768 Y52.991 E46.11013
G1 X110.308 Y53.073 E46.13738
G1 X111.04 Y53.225 E46.17468
G1 X111.569 Y53.387 E46.20228
G1 X111.609 Y53.401 E46.20439
G1 X112.301 Y53.685 E46.24171
G1 X112.966 Y54.046 E46.27946
G1 X113.265 Y54.23 E46.29698
G1 X114.054 Y54.795 E46.34539
G1 X114.077 Y54.814 E46.34688
G1 X114.854 Y55.564 E46.40076
G1 X115.075 Y55.813 E46.41737
G1 X115.664 Y56.577 E46.4655
G1 X115.682 Y56.604 E46.46711
G1 X116.216 Y57.558 E46.52166
G1 X116.357 Y57.864 E46.53847
G1 X116.633 Y58.559 E46.57578
G1 X116.863 Y59.42 E46.62024
G1 X116.911 Y59.66 E46.63245
G1 X117.02 Y60.423 E46.6709
G1 X118.793 Y80.69 E47.68589
G1 X128.568 Y80.69 E48.17356
G1 X128.603 Y80.608 E48.17801
G1 X128.961 Y79.966 E48.21469
G1 X129.172 Y79.63 E48.23448
G1 X129.802 Y78.778 E48.28734
G1 X129.821 Y78.756 E48.28879
G1 X130.34 Y78.216 E48.32616
G1 X130.923 Y77.718 E48.36441
G1 X131.524 Y77.272 E48.40175
G1 X131.991 Y76.988 E48.42902
G1 X132.891 Y76.565 E48.47863
G1 X133.259 Y76.423 E48.49831
G1 X134.035 Y76.175 E48.53896
G1 X134.768 Y76.025 E48.57628
G1 X135.393 Y75.956 E48.60766
G1 X136.049 Y75.925 E48.64042
G1 X152.663 Y75.929 E49.4693
G1 X153.224 Y75.952 E49.49731
G1 X154.278 Y76.114 E49.55051
G1 X154.655 Y76.202 E49.56982
G1 X155.63 Y76.506 E49.62078
G1 X155.663 Y76.519 E49.62255
G1 X156.343 Y76.83 E49.65985
G1 X156.85 Y77.123 E49.68907
G1 X157.179 Y77.332 E49.70851
G1 X157.789 Y77.767 E49.74589
G1 X158.202 Y78.124 E49.77313
G1 X158.232 Y78.152 E49.77517
G1 X158.751 Y78.691 E49.8125
