;FLAVOR:Marlin
;TIME:8101
;Filament used: 3.54252m
;Layer height: 0.1
;MINX:49.2
;MINY:65
;MINZ:0.3
;MAXX:150.8
;MAXY:135
;MAXZ:3.5
;Generated with Cura_SteamEngine master
M140 S60
M105
M190 S60
M104 S215
M105
M109 S215
M82 ;absolute extrusion mode
G21 ;metric values
 G90 ;absolute positioning
 M82 ;set extruder to absolute mode
 M107 ;start with the fan off
 G28 X0 Y0 ;move X/Y to min endstops
 G28 Z0 ;move Z to min endstops
 G1 Z15.0 F120 ;move the platform down 15mm
 G92 E0 ;zero the extruded length
 G1 F200 E6 ;extrude 6 mm of feed stock
 G92 E0 ;zero the extruded length again
 G1 F120 
 ;Put printing message on LCD screen
 M117 Printing...
G92 E0
G92 E0
G1 F1500 E-6.5
;LAYER_COUNT:23
;LAYER:0
M107
G1 F600 Z1.3
G0 F1800 X53.373 Y67.286 Z1.3
;TYPE:SKIRT
G1 F600 Z0.3
G1 F1500 E0
G1 F1350 X54.007 Y66.815 E0.0394
G1 X54.644 Y66.433 E0.07646
G1 X55.166 Y66.153 E0.10601
G1 X55.88 Y65.816 E0.1454
G1 X56.603 Y65.559 E0.18368
G1 X57.164 Y65.39 E0.21292
G1 X57.931 Y65.2 E0.25234
G1 X58.647 Y65.096 E0.28843
G1 X59.234 Y65.038 E0.31786
G1 X60.001 Y65 E0.35617
G1 X61.999 Y65 E0.45586
G1 X62.766 Y65.038 E0.49417
G1 X63.353 Y65.096 E0.5236
G1 X64.134 Y65.213 E0.563
G1 X64.836 Y65.39 E0.59911
G1 X65.397 Y65.559 E0.62835
G1 X66.14 Y65.824 E0.6677
G1 X66.834 Y66.153 E0.70602
G1 X67.356 Y66.433 E0.73557
G1 X68.032 Y66.841 E0.77496
G1 X68.624 Y67.283 E0.81182
G1 X69.075 Y67.654 E0.84096
G1 X69.659 Y68.186 E0.88037
G1 X70.141 Y68.72 E0.91626
G1 X70.514 Y69.173 E0.94554
G1 X70.985 Y69.807 E0.98494
G1 X71.367 Y70.444 E1.022
G1 X71.647 Y70.966 E1.05155
G1 X71.984 Y71.68 E1.09094
G1 X72.243 Y72.407 E1.12944
G1 X72.316 Y72.649 E1.14205
G1 X73.253 Y75 E1.26832
G1 X75.747 Y75 E1.39274
G1 X76.684 Y72.649 E1.51901
G1 X76.757 Y72.407 E1.53162
G1 X77.023 Y71.663 E1.57104
G1 X77.353 Y70.966 E1.60951
G1 X77.633 Y70.444 E1.63906
G1 X78.041 Y69.768 E1.67846
G1 X78.483 Y69.176 E1.71531
G1 X78.854 Y68.725 E1.74445
G1 X79.386 Y68.141 E1.78386
G1 X79.92 Y67.659 E1.81975
G1 X80.373 Y67.286 E1.84903
G1 X81.007 Y66.815 E1.88843
G1 X81.644 Y66.433 E1.92549
G1 X82.166 Y66.153 E1.95504
G1 X82.88 Y65.816 E1.99443
G1 X83.603 Y65.559 E2.03271
G1 X84.164 Y65.39 E2.06194
G1 X84.931 Y65.2 E2.10137
G1 X85.647 Y65.096 E2.13746
G1 X86.234 Y65.038 E2.16689
G1 X87.001 Y65 E2.2052
G1 X139.999 Y65 E4.84928
G1 X140.766 Y65.038 E4.8876
G1 X141.353 Y65.096 E4.91702
G1 X142.134 Y65.213 E4.95642
G1 X142.836 Y65.39 E4.99254
G1 X143.397 Y65.559 E5.02177
G1 X144.14 Y65.824 E5.06113
G1 X144.834 Y66.153 E5.09945
G1 X145.356 Y66.433 E5.129
G1 X146.032 Y66.841 E5.16839
G1 X146.624 Y67.283 E5.20525
G1 X147.075 Y67.654 E5.23439
G1 X147.659 Y68.186 E5.2738
G1 X148.141 Y68.72 E5.30969
G1 X148.514 Y69.173 E5.33896
G1 X148.985 Y69.807 E5.37837
G1 X149.367 Y70.444 E5.41542
G1 X149.647 Y70.966 E5.44498
G1 X149.984 Y71.68 E5.48437
G1 X150.24 Y72.399 E5.52244
G1 X150.409 Y72.959 E5.55163
G1 X150.599 Y73.726 E5.59105
G1 X150.704 Y74.445 E5.6273
G1 X150.762 Y75.031 E5.65668
G1 X150.8 Y75.799 E5.69504
G1 X150.8 Y124.199 E8.10973
G1 X150.762 Y124.967 E8.14809
G1 X150.704 Y125.553 E8.17747
G1 X150.587 Y126.334 E8.21687
G1 X150.412 Y127.031 E8.25272
G1 X150.243 Y127.593 E8.282
G1 X149.977 Y128.337 E8.32142
G1 X149.649 Y129.029 E8.35962
G1 X149.37 Y129.55 E8.38911
G1 X148.963 Y130.227 E8.42852
G1 X148.517 Y130.825 E8.46574
G1 X148.145 Y131.277 E8.49494
G1 X147.613 Y131.86 E8.53432
G1 X147.08 Y132.341 E8.57014
G1 X146.627 Y132.714 E8.59941
G1 X145.993 Y133.185 E8.63882
G1 X145.356 Y133.567 E8.67587
G1 X144.834 Y133.847 E8.70542
G1 X144.12 Y134.184 E8.74481
G1 X143.397 Y134.441 E8.7831
G1 X142.836 Y134.61 E8.81233
G1 X142.069 Y134.8 E8.85175
G1 X141.353 Y134.904 E8.88785
G1 X140.766 Y134.962 E8.91727
G1 X139.999 Y135 E8.95559
G1 X138.001 Y135 E9.05527
G1 X137.234 Y134.962 E9.09358
G1 X136.647 Y134.904 E9.12301
G1 X135.866 Y134.787 E9.16241
G1 X135.164 Y134.61 E9.19853
G1 X134.603 Y134.441 E9.22776
G1 X133.86 Y134.176 E9.26711
G1 X133.166 Y133.847 E9.30543
G1 X132.644 Y133.567 E9.33498
G1 X131.968 Y133.159 E9.37437
G1 X131.373 Y132.714 E9.41144
G1 X130.92 Y132.341 E9.44072
G1 X130.337 Y131.809 E9.48009
G1 X129.855 Y131.277 E9.51591
G1 X129.483 Y130.825 E9.54512
G1 X129.013 Y130.19 E9.58453
G1 X128.63 Y129.55 E9.62174
G1 X128.351 Y129.029 E9.65123
G1 X128.014 Y128.315 E9.69062
G1 X127.756 Y127.59 E9.72901
G1 X127.685 Y127.352 E9.7414
G1 X126.746 Y125 E9.86775
G1 X124.253 Y125 E9.99212
G1 X123.316 Y127.351 E10.11839
G1 X123.243 Y127.593 E10.131
G1 X122.977 Y128.337 E10.17042
G1 X122.649 Y129.029 E10.20862
G1 X122.37 Y129.55 E10.23811
G1 X121.963 Y130.227 E10.27752
G1 X121.517 Y130.825 E10.31474
G1 X121.145 Y131.277 E10.34394
G1 X120.613 Y131.86 E10.38332
G1 X120.08 Y132.341 E10.41914
G1 X119.627 Y132.714 E10.44841
G1 X118.993 Y133.185 E10.48781
G1 X118.356 Y133.567 E10.52487
G1 X117.834 Y133.847 E10.55442
G1 X117.12 Y134.184 E10.59381
G1 X116.397 Y134.441 E10.6321
G1 X115.836 Y134.61 E10.66133
G1 X115.069 Y134.8 E10.70075
G1 X114.353 Y134.904 E10.73685
G1 X113.766 Y134.962 E10.76627
G1 X112.999 Y135 E10.80459
G1 X60.001 Y135 E13.44867
G1 X59.234 Y134.962 E13.48698
G1 X58.647 Y134.904 E13.51641
G1 X57.866 Y134.787 E13.55581
G1 X57.164 Y134.61 E13.59193
G1 X56.603 Y134.441 E13.62116
G1 X55.86 Y134.176 E13.66051
G1 X55.166 Y133.847 E13.69883
G1 X54.644 Y133.567 E13.72838
G1 X53.968 Y133.159 E13.76777
G1 X53.373 Y132.714 E13.80484
G1 X52.92 Y132.341 E13.83412
G1 X52.337 Y131.809 E13.87349
G1 X51.855 Y131.277 E13.90931
G1 X51.483 Y130.825 E13.93852
G1 X51.013 Y130.19 E13.97793
G1 X50.63 Y129.55 E14.01514
G1 X50.351 Y129.029 E14.04462
G1 X50.014 Y128.315 E14.08401
G1 X49.757 Y127.593 E14.12225
G1 X49.588 Y127.031 E14.15153
G1 X49.4 Y126.264 E14.19093
G1 X49.296 Y125.556 E14.22663
G1 X49.238 Y124.972 E14.25591
G1 X49.2 Y124.201 E14.29442
G1 X49.2 Y75.801 E16.70911
G1 X49.238 Y75.035 E16.74737
G1 X49.296 Y74.447 E16.77685
G1 X49.413 Y73.666 E16.81624
G1 X49.591 Y72.959 E16.85262
G1 X49.76 Y72.399 E16.8818
G1 X50.026 Y71.656 E16.92117
G1 X50.353 Y70.966 E16.95927
G1 X50.633 Y70.444 E16.98882
G1 X51.041 Y69.768 E17.02821
G1 X51.483 Y69.176 E17.06507
G1 X51.854 Y68.725 E17.09421
G1 X52.386 Y68.141 E17.13362
G1 X52.92 Y67.659 E17.16951
G1 X53.373 Y67.286 E17.19878
G0 F1800 X53.627 Y67.594
G1 F1350 X54.246 Y67.137 E17.23717
G1 X54.833 Y66.786 E17.27129
G1 X55.355 Y66.506 E17.30085
G1 X56.051 Y66.178 E17.33923
G1 X56.719 Y65.942 E17.37458
G1 X57.28 Y65.773 E17.40381
G1 X58.027 Y65.589 E17.44219
G1 X58.686 Y65.494 E17.47541
G1 X59.273 Y65.436 E17.50484
G1 X60.001 Y65.4 E17.5412
G1 X61.999 Y65.4 E17.64088
G1 X62.727 Y65.436 E17.67725
G1 X63.314 Y65.494 E17.70667
G1 X64.074 Y65.609 E17.74502
G1 X64.72 Y65.773 E17.77827
G1 X65.281 Y65.942 E17.8075
G1 X66.005 Y66.201 E17.84587
G1 X66.645 Y66.506 E17.88124
G1 X67.167 Y66.786 E17.91079
G1 X67.825 Y67.184 E17.94915
G1 X68.37 Y67.592 E17.98312
G1 X68.821 Y67.963 E18.01226
G1 X69.389 Y68.482 E18.05064
G1 X69.833 Y68.974 E18.0837
G1 X70.206 Y69.427 E18.11298
G1 X70.663 Y70.046 E18.15137
G1 X71.014 Y70.633 E18.18549
G1 X71.294 Y71.155 E18.21504
G1 X71.622 Y71.851 E18.25343
G1 X71.86 Y72.522 E18.28895
G1 X71.936 Y72.775 E18.30213
G1 X72.983 Y75.4 E18.44312
G1 X76.017 Y75.4 E18.59449
G1 X77.064 Y72.775 E18.73548
G1 X77.14 Y72.522 E18.74866
G1 X77.4 Y71.798 E18.78704
G1 X77.706 Y71.155 E18.82257
G1 X77.986 Y70.633 E18.85212
G1 X78.384 Y69.975 E18.89049
G1 X78.792 Y69.43 E18.92445
G1 X79.163 Y68.979 E18.95359
G1 X79.682 Y68.411 E18.99197
G1 X80.174 Y67.967 E19.02504
G1 X80.627 Y67.594 E19.05431
G1 X81.246 Y67.137 E19.0927
G1 X81.833 Y66.786 E19.12682
G1 X82.355 Y66.506 E19.15637
G1 X83.051 Y66.178 E19.19476
G1 X83.719 Y65.942 E19.2301
G1 X84.28 Y65.773 E19.25934
G1 X85.027 Y65.589 E19.29772
G1 X85.686 Y65.494 E19.33093
G1 X86.273 Y65.436 E19.36036
G1 X87.001 Y65.4 E19.39673
G1 X139.999 Y65.4 E22.04081
G1 X140.727 Y65.436 E22.07717
G1 X141.314 Y65.494 E22.1066
G1 X142.074 Y65.609 E22.14495
G1 X142.72 Y65.773 E22.1782
G1 X143.281 Y65.942 E22.20743
G1 X144.005 Y66.201 E22.24579
G1 X144.645 Y66.506 E22.28116
G1 X145.167 Y66.786 E22.31072
G1 X145.825 Y67.184 E22.34908
G1 X146.37 Y67.592 E22.38305
G1 X146.821 Y67.963 E22.41218
G1 X147.389 Y68.482 E22.45057
G1 X147.833 Y68.974 E22.48363
G1 X148.206 Y69.427 E22.51291
G1 X148.663 Y70.046 E22.55129
G1 X149.014 Y70.633 E22.58542
G1 X149.294 Y71.155 E22.61497
G1 X149.622 Y71.851 E22.65335
G1 X149.857 Y72.515 E22.6885
G1 X150.026 Y73.075 E22.71768
G1 X150.21 Y73.822 E22.75606
G1 X150.306 Y74.484 E22.78943
G1 X150.364 Y75.07 E22.81881
G1 X150.4 Y75.799 E22.85523
G1 X150.4 Y124.199 E25.26991
G1 X150.364 Y124.928 E25.30633
G1 X150.306 Y125.514 E25.3357
G1 X150.191 Y126.274 E25.37405
G1 X150.029 Y126.916 E25.40709
G1 X149.86 Y127.478 E25.43636
G1 X149.6 Y128.202 E25.47474
G1 X149.297 Y128.84 E25.50998
G1 X149.018 Y129.361 E25.53947
G1 X148.62 Y130.02 E25.57787
G1 X148.208 Y130.57 E25.61216
G1 X147.836 Y131.022 E25.64136
G1 X147.317 Y131.59 E25.67975
G1 X146.826 Y132.033 E25.71274
G1 X146.373 Y132.406 E25.74202
G1 X145.754 Y132.863 E25.78041
G1 X145.167 Y133.214 E25.81453
G1 X144.645 Y133.494 E25.84408
G1 X143.949 Y133.822 E25.88247
G1 X143.281 Y134.058 E25.91781
G1 X142.72 Y134.227 E25.94704
G1 X141.973 Y134.411 E25.98542
G1 X141.314 Y134.506 E26.01864
G1 X140.727 Y134.564 E26.04807
G1 X139.999 Y134.6 E26.08443
G1 X138.001 Y134.6 E26.18412
G1 X137.273 Y134.564 E26.22048
G1 X136.686 Y134.506 E26.24991
G1 X135.926 Y134.391 E26.28826
G1 X135.28 Y134.227 E26.32151
G1 X134.719 Y134.058 E26.35074
G1 X133.995 Y133.799 E26.3891
G1 X133.355 Y133.494 E26.42447
G1 X132.833 Y133.214 E26.45402
G1 X132.175 Y132.816 E26.49239
G1 X131.627 Y132.406 E26.52653
G1 X131.174 Y132.033 E26.55581
G1 X130.607 Y131.514 E26.59416
G1 X130.164 Y131.022 E26.62719
G1 X129.792 Y130.57 E26.65639
G1 X129.335 Y129.952 E26.69474
G1 X128.982 Y129.361 E26.72908
G1 X128.703 Y128.84 E26.75857
G1 X128.376 Y128.144 E26.79694
G1 X128.139 Y127.475 E26.83234
G1 X128.061 Y127.215 E26.84589
G1 X127.018 Y124.6 E26.98634
G1 X123.983 Y124.6 E27.13776
G1 X122.936 Y127.225 E27.27876
G1 X122.86 Y127.478 E27.29193
G1 X122.6 Y128.202 E27.33031
G1 X122.297 Y128.84 E27.36555
G1 X122.018 Y129.361 E27.39504
G1 X121.62 Y130.02 E27.43344
G1 X121.208 Y130.57 E27.46773
G1 X120.836 Y131.022 E27.49693
G1 X120.317 Y131.59 E27.53532
G1 X119.826 Y132.033 E27.56831
G1 X119.373 Y132.406 E27.59759
G1 X118.754 Y132.863 E27.63598
G1 X118.167 Y133.214 E27.6701
G1 X117.645 Y133.494 E27.69965
G1 X116.949 Y133.822 E27.73804
G1 X116.281 Y134.058 E27.77338
G1 X115.72 Y134.227 E27.80261
G1 X114.973 Y134.411 E27.84099
G1 X114.314 Y134.506 E27.87421
G1 X113.727 Y134.564 E27.90364
G1 X112.999 Y134.6 E27.94
G1 X60.001 Y134.6 E30.58409
G1 X59.273 Y134.564 E30.62045
G1 X58.686 Y134.506 E30.64988
G1 X57.926 Y134.391 E30.68823
G1 X57.28 Y134.227 E30.72148
G1 X56.719 Y134.058 E30.75071
G1 X55.995 Y133.799 E30.78907
G1 X55.355 Y133.494 E30.82444
G1 X54.833 Y133.214 E30.85399
G1 X54.175 Y132.816 E30.89236
G1 X53.627 Y132.406 E30.9265
G1 X53.174 Y132.033 E30.95578
G1 X52.607 Y131.514 E30.99413
G1 X52.164 Y131.022 E31.02716
G1 X51.792 Y130.57 E31.05636
G1 X51.335 Y129.952 E31.09471
G1 X50.982 Y129.361 E31.12906
G1 X50.703 Y128.84 E31.15854
G1 X50.376 Y128.144 E31.19691
G1 X50.14 Y127.478 E31.23216
G1 X49.971 Y126.916 E31.26144
G1 X49.789 Y126.169 E31.29979
G1 X49.694 Y125.516 E31.33271
G1 X49.636 Y124.932 E31.36199
G1 X49.6 Y124.201 E31.39851
G1 X49.6 Y75.801 E33.81319
G1 X49.636 Y75.075 E33.84946
G1 X49.694 Y74.487 E33.87894
G1 X49.809 Y73.726 E33.91733
G1 X49.974 Y73.075 E33.95084
G1 X50.143 Y72.515 E33.98002
G1 X50.403 Y71.791 E34.0184
G1 X50.706 Y71.155 E34.05355
G1 X50.986 Y70.633 E34.0831
G1 X51.384 Y69.975 E34.12147
G1 X51.792 Y69.43 E34.15543
G1 X52.163 Y68.979 E34.18457
G1 X52.682 Y68.411 E34.22295
G1 X53.174 Y67.967 E34.25602
G1 X53.627 Y67.594 E34.28529
G0 F1800 X53.881 Y67.903
G1 F1350 X54.484 Y67.459 E34.32265
G1 X55.022 Y67.138 E34.35391
G1 X55.544 Y66.858 E34.38346
G1 X56.221 Y66.541 E34.42075
G1 X56.834 Y66.325 E34.45318
G1 X57.395 Y66.156 E34.48241
G1 X58.122 Y65.978 E34.51975
G1 X58.726 Y65.892 E34.55019
G1 X59.313 Y65.834 E34.57962
G1 X60.001 Y65.8 E34.61399
G1 X61.999 Y65.8 E34.71367
G1 X62.687 Y65.834 E34.74803
G1 X63.274 Y65.892 E34.77746
G1 X64.014 Y66.005 E34.81481
G1 X64.605 Y66.156 E34.84524
G1 X65.166 Y66.325 E34.87447
G1 X65.87 Y66.578 E34.91179
G1 X66.456 Y66.858 E34.94419
G1 X66.978 Y67.138 E34.97375
G1 X67.617 Y67.527 E35.01107
G1 X68.116 Y67.901 E35.04218
G1 X68.567 Y68.272 E35.07132
G1 X69.119 Y68.777 E35.10864
G1 X69.524 Y69.228 E35.13888
G1 X69.897 Y69.681 E35.16816
G1 X70.341 Y70.284 E35.20552
G1 X70.662 Y70.822 E35.23677
G1 X70.942 Y71.344 E35.26633
G1 X71.259 Y72.021 E35.30362
G1 X71.476 Y72.637 E35.3362
G1 X71.556 Y72.902 E35.35001
G1 X72.711 Y75.8 E35.50566
G1 X76.289 Y75.8 E35.68416
G1 X77.444 Y72.902 E35.8398
G1 X77.524 Y72.637 E35.85361
G1 X77.777 Y71.933 E35.89094
G1 X78.058 Y71.344 E35.92349
G1 X78.338 Y70.822 E35.95305
G1 X78.727 Y70.183 E35.99037
G1 X79.101 Y69.684 E36.02148
G1 X79.472 Y69.233 E36.05062
G1 X79.977 Y68.681 E36.08794
G1 X80.428 Y68.276 E36.11818
G1 X80.881 Y67.903 E36.14746
G1 X81.484 Y67.459 E36.18482
G1 X82.022 Y67.138 E36.21607
G1 X82.544 Y66.858 E36.24563
G1 X83.221 Y66.541 E36.28292
G1 X83.834 Y66.325 E36.31535
G1 X84.395 Y66.156 E36.34458
G1 X85.122 Y65.978 E36.38192
G1 X85.726 Y65.892 E36.41236
G1 X86.313 Y65.834 E36.44179
G1 X87.001 Y65.8 E36.47615
G1 X139.999 Y65.8 E39.12023
G1 X140.687 Y65.834 E39.1546
G1 X141.274 Y65.892 E39.18403
G1 X142.014 Y66.005 E39.22137
G1 X142.605 Y66.156 E39.25181
G1 X143.166 Y66.325 E39.28104
G1 X143.87 Y66.578 E39.31836
G1 X144.456 Y66.858 E39.35076
G1 X144.978 Y67.138 E39.38031
G1 X145.617 Y67.527 E39.41764
G1 X146.116 Y67.901 E39.44875
G1 X146.567 Y68.272 E39.47788
G1 X147.119 Y68.777 E39.51521
G1 X147.524 Y69.228 E39.54545
G1 X147.897 Y69.681 E39.57472
G1 X148.341 Y70.284 E39.61208
G1 X148.662 Y70.822 E39.64334
G1 X148.942 Y71.344 E39.67289
G1 X149.259 Y72.021 E39.71019
G1 X149.474 Y72.631 E39.74246
G1 X149.643 Y73.191 E39.77164
G1 X149.821 Y73.917 E39.80893
G1 X149.908 Y74.524 E39.83952
G1 X149.966 Y75.11 E39.8689
G1 X150 Y75.799 E39.90332
G1 X150 Y124.199 E42.318
G1 X149.966 Y124.888 E42.35242
G1 X149.908 Y125.474 E42.3818
G1 X149.795 Y126.214 E42.41915
G1 X149.645 Y126.801 E42.44937
G1 X149.476 Y127.363 E42.47865
G1 X149.223 Y128.067 E42.51597
G1 X148.944 Y128.652 E42.54831
G1 X148.665 Y129.173 E42.57779
G1 X148.277 Y129.812 E42.61509
G1 X147.899 Y130.316 E42.64652
G1 X147.527 Y130.768 E42.67573
G1 X147.021 Y131.32 E42.71309
G1 X146.572 Y131.724 E42.74322
G1 X146.119 Y132.097 E42.77249
G1 X145.516 Y132.541 E42.80985
G1 X144.978 Y132.862 E42.84111
G1 X144.456 Y133.142 E42.87066
G1 X143.779 Y133.459 E42.90796
G1 X143.166 Y133.675 E42.94038
G1 X142.605 Y133.844 E42.96961
G1 X141.878 Y134.022 E43.00696
G1 X141.274 Y134.108 E43.03739
G1 X140.687 Y134.166 E43.06682
G1 X139.999 Y134.2 E43.10119
G1 X138.001 Y134.2 E43.20087
G1 X137.313 Y134.166 E43.23523
G1 X136.726 Y134.108 E43.26466
G1 X135.986 Y133.995 E43.30201
G1 X135.395 Y133.844 E43.33244
G1 X134.834 Y133.675 E43.36167
G1 X134.13 Y133.422 E43.39899
G1 X133.544 Y133.142 E43.4314
G1 X133.022 Y132.862 E43.46095
G1 X132.383 Y132.473 E43.49827
G1 X131.881 Y132.097 E43.52956
G1 X131.428 Y131.724 E43.55884
G1 X130.877 Y131.218 E43.59616
G1 X130.473 Y130.768 E43.62633
G1 X130.101 Y130.316 E43.65554
G1 X129.657 Y129.714 E43.69286
G1 X129.335 Y129.173 E43.72427
G1 X129.056 Y128.652 E43.75375
G1 X128.739 Y127.974 E43.79109
G1 X128.523 Y127.36 E43.82356
G1 X128.445 Y127.099 E43.83715
G1 X127.288 Y124.2 E43.99288
G1 X123.711 Y124.2 E44.17134
G1 X122.556 Y127.098 E44.32698
G1 X122.476 Y127.363 E44.34079
G1 X122.223 Y128.067 E44.37811
G1 X121.944 Y128.652 E44.41044
G1 X121.665 Y129.173 E44.43993
G1 X121.277 Y129.812 E44.47723
G1 X120.899 Y130.316 E44.50866
G1 X120.527 Y130.768 E44.53786
G1 X120.021 Y131.32 E44.57522
G1 X119.572 Y131.724 E44.60536
G1 X119.119 Y132.097 E44.63463
G1 X118.516 Y132.541 E44.67199
G1 X117.978 Y132.862 E44.70325
G1 X117.456 Y133.142 E44.7328
