;FLAVOR:Marlin
;TIME:8931
;Filament used: 3.80428m
;Layer height: 0.1
;MINX:49.2
;MINY:65
;MINZ:0.3
;MAXX:150.8
;MAXY:135
;MAXZ:2
;Generated with Cura_SteamEngine master
M140 S60
M105
M190 S60
M104 S215
M105
M109 S215
M82 ;absolute extrusion mode
G21 ;metric values
 G90 ;absolute positioning
 M82 ;set extruder to absolute mode
 M107 ;start with the fan off
 G28 X0 Y0 ;move X/Y to min endstops
 G28 Z0 ;move Z to min endstops
 G1 Z15.0 F120 ;move the platform down 15mm
 G92 E0 ;zero the extruded length
 G1 F200 E6 ;extrude 6 mm of feed stock
 G92 E0 ;zero the extruded length again
 G1 F120 
 ;Put printing message on LCD screen
 M117 Printing...
G92 E0
G92 E0
G1 F1500 E-6.5
;LAYER_COUNT:18
;LAYER:0
M107
G1 F600 Z1.3
G0 F1800 X53.373 Y67.286 Z1.3
;TYPE:SKIRT
G1 F600 Z0.3
G1 F1500 E0
G1 F1350 X54.007 Y66.815 E0.0394
G1 X54.644 Y66.433 E0.07646
G1 X55.166 Y66.153 E0.10601
G1 X55.88 Y65.816 E0.1454
G1 X56.603 Y65.559 E0.18368
G1 X57.164 Y65.39 E0.21292
G1 X57.931 Y65.2 E0.25234
G1 X58.647 Y65.096 E0.28843
G1 X59.234 Y65.038 E0.31786
G1 X60.001 Y65 E0.35617
G1 X112.999 Y65 E3.00026
G1 X113.766 Y65.038 E3.03857
G1 X114.353 Y65.096 E3.068
G1 X115.134 Y65.213 E3.1074
G1 X115.836 Y65.39 E3.14351
G1 X116.397 Y65.559 E3.17275
G1 X117.14 Y65.824 E3.2121
G1 X117.834 Y66.153 E3.25042
G1 X118.356 Y66.433 E3.27997
G1 X119.032 Y66.841 E3.31936
G1 X119.624 Y67.283 E3.35622
G1 X120.075 Y67.654 E3.38536
G1 X120.659 Y68.186 E3.42477
G1 X121.141 Y68.72 E3.46066
G1 X121.514 Y69.173 E3.48994
G1 X121.985 Y69.807 E3.52934
G1 X122.367 Y70.444 E3.5664
G1 X122.647 Y70.966 E3.59595
G1 X122.984 Y71.68 E3.63534
G1 X123.243 Y72.407 E3.67384
G1 X123.316 Y72.649 E3.68645
G1 X124.253 Y75 E3.81272
G1 X126.747 Y75 E3.93714
G1 X127.684 Y72.649 E4.06341
G1 X127.757 Y72.407 E4.07602
G1 X128.023 Y71.663 E4.11544
G1 X128.353 Y70.966 E4.15391
G1 X128.633 Y70.444 E4.18346
G1 X129.041 Y69.768 E4.22286
G1 X129.483 Y69.176 E4.25972
G1 X129.854 Y68.725 E4.28885
G1 X130.386 Y68.141 E4.32826
G1 X130.92 Y67.659 E4.36415
G1 X131.373 Y67.286 E4.39343
G1 X132.007 Y66.815 E4.43283
G1 X132.644 Y66.433 E4.46989
G1 X133.166 Y66.153 E4.49944
G1 X133.88 Y65.816 E4.53883
G1 X134.603 Y65.559 E4.57711
G1 X135.164 Y65.39 E4.60634
G1 X135.931 Y65.2 E4.64577
G1 X136.647 Y65.096 E4.68186
G1 X137.234 Y65.038 E4.71129
G1 X138.001 Y65 E4.7496
G1 X139.999 Y65 E4.84928
G1 X140.766 Y65.038 E4.8876
G1 X141.353 Y65.096 E4.91702
G1 X142.134 Y65.213 E4.95642
G1 X142.836 Y65.39 E4.99254
G1 X143.397 Y65.559 E5.02177
G1 X144.14 Y65.824 E5.06113
G1 X144.834 Y66.153 E5.09945
G1 X145.356 Y66.433 E5.129
G1 X146.032 Y66.841 E5.16839
G1 X146.624 Y67.283 E5.20525
G1 X147.075 Y67.654 E5.23439
G1 X147.659 Y68.186 E5.2738
G1 X148.141 Y68.72 E5.30969
G1 X148.514 Y69.173 E5.33896
G1 X148.985 Y69.807 E5.37837
G1 X149.367 Y70.444 E5.41542
G1 X149.647 Y70.966 E5.44498
G1 X149.984 Y71.68 E5.48437
G1 X150.24 Y72.399 E5.52244
G1 X150.409 Y72.959 E5.55163
G1 X150.599 Y73.726 E5.59105
G1 X150.704 Y74.445 E5.6273
G1 X150.762 Y75.031 E5.65668
G1 X150.8 Y75.799 E5.69504
G1 X150.8 Y124.199 E8.10973
G1 X150.762 Y124.967 E8.14809
G1 X150.704 Y125.553 E8.17747
G1 X150.587 Y126.334 E8.21687
G1 X150.412 Y127.031 E8.25272
G1 X150.243 Y127.593 E8.282
G1 X149.977 Y128.337 E8.32142
G1 X149.649 Y129.029 E8.35962
G1 X149.37 Y129.55 E8.38911
G1 X148.963 Y130.227 E8.42852
G1 X148.517 Y130.825 E8.46574
G1 X148.145 Y131.277 E8.49494
G1 X147.613 Y131.86 E8.53432
G1 X147.08 Y132.341 E8.57014
G1 X146.627 Y132.714 E8.59941
G1 X145.993 Y133.185 E8.63882
G1 X145.356 Y133.567 E8.67587
G1 X144.834 Y133.847 E8.70542
G1 X144.12 Y134.184 E8.74481
G1 X143.397 Y134.441 E8.7831
G1 X142.836 Y134.61 E8.81233
G1 X142.069 Y134.8 E8.85175
G1 X141.353 Y134.904 E8.88785
G1 X140.766 Y134.962 E8.91727
G1 X139.999 Y135 E8.95559
G1 X87.001 Y135 E11.59967
G1 X86.234 Y134.962 E11.63798
G1 X85.647 Y134.904 E11.66741
G1 X84.866 Y134.787 E11.70681
G1 X84.164 Y134.61 E11.74293
G1 X83.603 Y134.441 E11.77216
G1 X82.86 Y134.176 E11.81151
G1 X82.166 Y133.847 E11.84983
G1 X81.644 Y133.567 E11.87938
G1 X80.968 Y133.159 E11.91878
G1 X80.373 Y132.714 E11.95584
G1 X79.92 Y132.341 E11.98512
G1 X79.337 Y131.809 E12.0245
G1 X78.855 Y131.277 E12.06031
G1 X78.483 Y130.825 E12.08952
G1 X78.013 Y130.19 E12.12893
G1 X77.63 Y129.55 E12.16614
G1 X77.351 Y129.029 E12.19563
G1 X77.014 Y128.315 E12.23502
G1 X76.756 Y127.59 E12.27341
G1 X76.685 Y127.352 E12.2858
G1 X75.746 Y125 E12.41215
G1 X73.253 Y125 E12.53652
G1 X72.316 Y127.351 E12.66279
G1 X72.243 Y127.593 E12.6754
G1 X71.977 Y128.337 E12.71482
G1 X71.649 Y129.029 E12.75302
G1 X71.37 Y129.55 E12.78251
G1 X70.963 Y130.227 E12.82192
G1 X70.517 Y130.825 E12.85914
G1 X70.145 Y131.277 E12.88834
G1 X69.613 Y131.86 E12.92772
G1 X69.08 Y132.341 E12.96354
G1 X68.627 Y132.714 E12.99281
G1 X67.993 Y133.185 E13.03222
G1 X67.356 Y133.567 E13.06927
G1 X66.834 Y133.847 E13.09882
G1 X66.12 Y134.184 E13.13821
G1 X65.397 Y134.441 E13.1765
G1 X64.836 Y134.61 E13.20573
G1 X64.069 Y134.8 E13.24515
G1 X63.353 Y134.904 E13.28125
G1 X62.766 Y134.962 E13.31067
G1 X61.999 Y135 E13.34899
G1 X60.001 Y135 E13.44867
G1 X59.234 Y134.962 E13.48698
G1 X58.647 Y134.904 E13.51641
G1 X57.866 Y134.787 E13.55581
G1 X57.164 Y134.61 E13.59193
G1 X56.603 Y134.441 E13.62116
G1 X55.86 Y134.176 E13.66051
G1 X55.166 Y133.847 E13.69883
G1 X54.644 Y133.567 E13.72838
G1 X53.968 Y133.159 E13.76777
G1 X53.373 Y132.714 E13.80484
G1 X52.92 Y132.341 E13.83412
G1 X52.337 Y131.809 E13.87349
G1 X51.855 Y131.277 E13.90931
G1 X51.483 Y130.825 E13.93852
G1 X51.013 Y130.19 E13.97793
G1 X50.63 Y129.55 E14.01514
G1 X50.351 Y129.029 E14.04462
G1 X50.014 Y128.315 E14.08401
G1 X49.757 Y127.593 E14.12225
G1 X49.588 Y127.031 E14.15153
G1 X49.4 Y126.264 E14.19093
G1 X49.296 Y125.556 E14.22663
G1 X49.238 Y124.972 E14.25591
G1 X49.2 Y124.201 E14.29442
G1 X49.2 Y75.801 E16.70911
G1 X49.238 Y75.035 E16.74737
G1 X49.296 Y74.447 E16.77685
G1 X49.413 Y73.666 E16.81624
G1 X49.591 Y72.959 E16.85262
G1 X49.76 Y72.399 E16.8818
G1 X50.026 Y71.656 E16.92117
G1 X50.353 Y70.966 E16.95927
G1 X50.633 Y70.444 E16.98882
G1 X51.041 Y69.768 E17.02821
G1 X51.483 Y69.176 E17.06507
G1 X51.854 Y68.725 E17.09421
G1 X52.386 Y68.141 E17.13362
G1 X52.92 Y67.659 E17.16951
G1 X53.373 Y67.286 E17.19878
G0 F1800 X53.627 Y67.594
G1 F1350 X54.246 Y67.137 E17.23717
G1 X54.833 Y66.786 E17.27129
G1 X55.355 Y66.506 E17.30085
G1 X56.051 Y66.178 E17.33923
G1 X56.719 Y65.942 E17.37458
G1 X57.28 Y65.773 E17.40381
G1 X58.027 Y65.589 E17.44219
G1 X58.686 Y65.494 E17.47541
G1 X59.273 Y65.436 E17.50484
G1 X60.001 Y65.4 E17.5412
G1 X112.999 Y65.4 E20.18528
G1 X113.727 Y65.436 E20.22165
G1 X114.314 Y65.494 E20.25107
G1 X115.074 Y65.609 E20.28942
G1 X115.72 Y65.773 E20.32267
G1 X116.281 Y65.942 E20.3519
G1 X117.005 Y66.201 E20.39027
G1 X117.645 Y66.506 E20.42564
G1 X118.167 Y66.786 E20.45519
G1 X118.825 Y67.184 E20.49355
G1 X119.37 Y67.592 E20.52752
G1 X119.821 Y67.963 E20.55666
G1 X120.389 Y68.482 E20.59504
G1 X120.833 Y68.974 E20.6281
G1 X121.206 Y69.427 E20.65738
G1 X121.663 Y70.046 E20.69577
G1 X122.014 Y70.633 E20.72989
G1 X122.294 Y71.155 E20.75944
G1 X122.622 Y71.851 E20.79783
G1 X122.86 Y72.522 E20.83335
G1 X122.936 Y72.775 E20.84653
G1 X123.983 Y75.4 E20.98752
G1 X127.017 Y75.4 E21.13889
G1 X128.064 Y72.775 E21.27988
G1 X128.14 Y72.522 E21.29306
G1 X128.4 Y71.798 E21.33144
G1 X128.706 Y71.155 E21.36697
G1 X128.986 Y70.633 E21.39652
G1 X129.384 Y69.975 E21.43489
G1 X129.792 Y69.43 E21.46885
G1 X130.163 Y68.979 E21.49799
G1 X130.682 Y68.411 E21.53637
G1 X131.174 Y67.967 E21.56944
G1 X131.627 Y67.594 E21.59871
G1 X132.246 Y67.137 E21.6371
G1 X132.833 Y66.786 E21.67122
G1 X133.355 Y66.506 E21.70077
G1 X134.051 Y66.178 E21.73916
G1 X134.719 Y65.942 E21.7745
G1 X135.28 Y65.773 E21.80374
G1 X136.027 Y65.589 E21.84212
G1 X136.686 Y65.494 E21.87533
G1 X137.273 Y65.436 E21.90476
G1 X138.001 Y65.4 E21.94113
G1 X139.999 Y65.4 E22.04081
G1 X140.727 Y65.436 E22.07717
G1 X141.314 Y65.494 E22.1066
G1 X142.074 Y65.609 E22.14495
G1 X142.72 Y65.773 E22.1782
G1 X143.281 Y65.942 E22.20743
G1 X144.005 Y66.201 E22.24579
G1 X144.645 Y66.506 E22.28116
G1 X145.167 Y66.786 E22.31072
G1 X145.825 Y67.184 E22.34908
G1 X146.37 Y67.592 E22.38305
G1 X146.821 Y67.963 E22.41218
G1 X147.389 Y68.482 E22.45057
G1 X147.833 Y68.974 E22.48363
G1 X148.206 Y69.427 E22.51291
G1 X148.663 Y70.046 E22.55129
G1 X149.014 Y70.633 E22.58542
G1 X149.294 Y71.155 E22.61497
G1 X149.622 Y71.851 E22.65335
G1 X149.857 Y72.515 E22.6885
G1 X150.026 Y73.075 E22.71768
G1 X150.21 Y73.822 E22.75606
G1 X150.306 Y74.484 E22.78943
G1 X150.364 Y75.07 E22.81881
G1 X150.4 Y75.799 E22.85523
G1 X150.4 Y124.199 E25.26991
G1 X150.364 Y124.928 E25.30633
G1 X150.306 Y125.514 E25.3357
G1 X150.191 Y126.274 E25.37405
G1 X150.029 Y126.916 E25.40709
G1 X149.86 Y127.478 E25.43636
G1 X149.6 Y128.202 E25.47474
G1 X149.297 Y128.84 E25.50998
G1 X149.018 Y129.361 E25.53947
G1 X148.62 Y130.02 E25.57787
G1 X148.208 Y130.57 E25.61216
G1 X147.836 Y131.022 E25.64136
G1 X147.317 Y131.59 E25.67975
G1 X146.826 Y132.033 E25.71274
G1 X146.373 Y132.406 E25.74202
G1 X145.754 Y132.863 E25.78041
G1 X145.167 Y133.214 E25.81453
G1 X144.645 Y133.494 E25.84408
G1 X143.949 Y133.822 E25.88247
G1 X143.281 Y134.058 E25.91781
G1 X142.72 Y134.227 E25.94704
G1 X141.973 Y134.411 E25.98542
G1 X141.314 Y134.506 E26.01864
G1 X140.727 Y134.564 E26.04807
G1 X139.999 Y134.6 E26.08443
G1 X87.001 Y134.6 E28.72852
G1 X86.273 Y134.564 E28.76488
G1 X85.686 Y134.506 E28.79431
G1 X84.926 Y134.391 E28.83266
G1 X84.28 Y134.227 E28.86591
G1 X83.719 Y134.058 E28.89514
G1 X82.995 Y133.799 E28.9335
G1 X82.355 Y133.494 E28.96887
G1 X81.833 Y133.214 E28.99842
G1 X81.175 Y132.816 E29.03679
G1 X80.627 Y132.406 E29.07093
G1 X80.174 Y132.033 E29.10021
G1 X79.607 Y131.514 E29.13856
G1 X79.164 Y131.022 E29.17159
G1 X78.792 Y130.57 E29.20079
G1 X78.335 Y129.952 E29.23914
G1 X77.982 Y129.361 E29.27349
G1 X77.703 Y128.84 E29.30297
G1 X77.376 Y128.144 E29.34134
G1 X77.139 Y127.475 E29.37674
G1 X77.061 Y127.215 E29.39029
G1 X76.018 Y124.6 E29.53074
G1 X72.983 Y124.6 E29.68216
G1 X71.936 Y127.225 E29.82316
G1 X71.86 Y127.478 E29.83634
G1 X71.6 Y128.202 E29.87471
G1 X71.297 Y128.84 E29.90995
G1 X71.018 Y129.361 E29.93944
G1 X70.62 Y130.02 E29.97785
G1 X70.208 Y130.57 E30.01213
G1 X69.836 Y131.022 E30.04134
G1 X69.317 Y131.59 E30.07972
G1 X68.826 Y132.033 E30.11271
G1 X68.373 Y132.406 E30.14199
G1 X67.754 Y132.863 E30.18038
G1 X67.167 Y133.214 E30.2145
G1 X66.645 Y133.494 E30.24405
G1 X65.949 Y133.822 E30.28244
G1 X65.281 Y134.058 E30.31778
G1 X64.72 Y134.227 E30.34701
G1 X63.973 Y134.411 E30.38539
G1 X63.314 Y134.506 E30.41861
G1 X62.727 Y134.564 E30.44804
G1 X61.999 Y134.6 E30.48441
G1 X60.001 Y134.6 E30.58409
G1 X59.273 Y134.564 E30.62045
G1 X58.686 Y134.506 E30.64988
G1 X57.926 Y134.391 E30.68823
G1 X57.28 Y134.227 E30.72148
G1 X56.719 Y134.058 E30.75071
G1 X55.995 Y133.799 E30.78907
G1 X55.355 Y133.494 E30.82444
G1 X54.833 Y133.214 E30.85399
G1 X54.175 Y132.816 E30.89236
G1 X53.627 Y132.406 E30.9265
G1 X53.174 Y132.033 E30.95578
G1 X52.607 Y131.514 E30.99413
G1 X52.164 Y131.022 E31.02716
G1 X51.792 Y130.57 E31.05636
G1 X51.335 Y129.952 E31.09471
G1 X50.982 Y129.361 E31.12906
G1 X50.703 Y128.84 E31.15854
G1 X50.376 Y128.144 E31.19691
G1 X50.14 Y127.478 E31.23216
G1 X49.971 Y126.916 E31.26144
G1 X49.789 Y126.169 E31.29979
G1 X49.694 Y125.516 E31.33271
G1 X49.636 Y124.932 E31.36199
G1 X49.6 Y124.201 E31.39851
G1 X49.6 Y75.801 E33.81319
G1 X49.636 Y75.075 E33.84946
G1 X49.694 Y74.487 E33.87894
G1 X49.809 Y73.726 E33.91733
G1 X49.974 Y73.075 E33.95084
G1 X50.143 Y72.515 E33.98002
G1 X50.403 Y71.791 E34.0184
G1 X50.706 Y71.155 E34.05355
G1 X50.986 Y70.633 E34.0831
G1 X51.384 Y69.975 E34.12147
G1 X51.792 Y69.43 E34.15543
G1 X52.163 Y68.979 E34.18457
G1 X52.682 Y68.411 E34.22295
G1 X53.174 Y67.967 E34.25602
G1 X53.627 Y67.594 E34.28529
G0 F1800 X53.881 Y67.903
G1 F1350 X54.484 Y67.459 E34.32265
G1 X55.022 Y67.138 E34.35391
G1 X55.544 Y66.858 E34.38346
G1 X56.221 Y66.541 E34.42075
G1 X56.834 Y66.325 E34.45318
G1 X57.395 Y66.156 E34.48241
G1 X58.122 Y65.978 E34.51975
G1 X58.726 Y65.892 E34.55019
G1 X59.313 Y65.834 E34.57962
G1 X60.001 Y65.8 E34.61399
G1 X112.999 Y65.8 E37.25807
G1 X113.687 Y65.834 E37.29243
G1 X114.274 Y65.892 E37.32186
G1 X115.014 Y66.005 E37.35921
G1 X115.605 Y66.156 E37.38964
G1 X116.166 Y66.325 E37.41887
G1 X116.87 Y66.578 E37.45619
G1 X117.456 Y66.858 E37.48859
G1 X117.978 Y67.138 E37.51815
G1 X118.617 Y67.527 E37.55547
G1 X119.116 Y67.901 E37.58658
G1 X119.567 Y68.272 E37.61572
G1 X120.119 Y68.777 E37.65304
G1 X120.524 Y69.228 E37.68328
G1 X120.897 Y69.681 E37.71256
G1 X121.341 Y70.284 E37.74992
G1 X121.662 Y70.822 E37.78117
G1 X121.942 Y71.344 E37.81073
G1 X122.259 Y72.021 E37.84802
G1 X122.476 Y72.637 E37.8806
G1 X122.556 Y72.902 E37.89441
G1 X123.711 Y75.8 E38.05006
G1 X127.289 Y75.8 E38.22856
G1 X128.444 Y72.902 E38.3842
G1 X128.524 Y72.637 E38.39802
G1 X128.777 Y71.933 E38.43534
G1 X129.058 Y71.344 E38.4679
G1 X129.338 Y70.822 E38.49745
G1 X129.727 Y70.183 E38.53477
G1 X130.101 Y69.684 E38.56588
G1 X130.472 Y69.233 E38.59502
G1 X130.977 Y68.681 E38.63234
G1 X131.428 Y68.276 E38.66258
G1 X131.881 Y67.903 E38.69186
G1 X132.484 Y67.459 E38.72922
G1 X133.022 Y67.138 E38.76047
G1 X133.544 Y66.858 E38.79003
G1 X134.221 Y66.541 E38.82732
G1 X134.834 Y66.325 E38.85975
G1 X135.395 Y66.156 E38.88898
G1 X136.122 Y65.978 E38.92632
G1 X136.726 Y65.892 E38.95676
G1 X137.313 Y65.834 E38.98619
G1 X138.001 Y65.8 E39.02055
G1 X139.999 Y65.8 E39.12023
G1 X140.687 Y65.834 E39.1546
G1 X141.274 Y65.892 E39.18403
G1 X142.014 Y66.005 E39.22137
G1 X142.605 Y66.156 E39.25181
G1 X143.166 Y66.325 E39.28104
G1 X143.87 Y66.578 E39.31836
G1 X144.456 Y66.858 E39.35076
G1 X144.978 Y67.138 E39.38031
G1 X145.617 Y67.527 E39.41764
G1 X146.116 Y67.901 E39.44875
G1 X146.567 Y68.272 E39.47788
G1 X147.119 Y68.777 E39.51521
G1 X147.524 Y69.228 E39.54545
G1 X147.897 Y69.681 E39.57472
G1 X148.341 Y70.284 E39.61208
G1 X148.662 Y70.822 E39.64334
G1 X148.942 Y71.344 E39.67289
G1 X149.259 Y72.021 E39.71019
G1 X149.474 Y72.631 E39.74246
G1 X149.643 Y73.191 E39.77164
G1 X149.821 Y73.917 E39.80893
G1 X149.908 Y74.524 E39.83952
G1 X149.966 Y75.11 E39.8689
G1 X150 Y75.799 E39.90332
G1 X150 Y124.199 E42.318
G1 X149.966 Y124.888 E42.35242
G1 X149.908 Y125.474 E42.3818
G1 X149.795 Y126.214 E42.41915
G1 X149.645 Y126.801 E42.44937
G1 X149.476 Y127.363 E42.47865
G1 X149.223 Y128.067 E42.51597
G1 X148.944 Y128.652 E42.54831
G1 X148.665 Y129.173 E42.57779
G1 X148.277 Y129.812 E42.61509
G1 X147.899 Y130.316 E42.64652
G1 X147.527 Y130.768 E42.67573
G1 X147.021 Y131.32 E42.71309
G1 X146.572 Y131.724 E42.74322
G1 X146.119 Y132.097 E42.77249
G1 X145.516 Y132.541 E42.80985
G1 X144.978 Y132.862 E42.84111
G1 X144.456 Y133.142 E42.87066
G1 X143.779 Y133.459 E42.90796
G1 X143.166 Y133.675 E42.94038
G1 X142.605 Y133.844 E42.96961
G1 X141.878 Y134.022 E43.00696
G1 X141.274 Y134.108 E43.03739
G1 X140.687 Y134.166 E43.06682
G1 X139.999 Y134.2 E43.10119
G1 X87.001 Y134.2 E45.74527
G1 X86.313 Y134.166 E45.77963
G1 X85.726 Y134.108 E45.80906
G1 X84.986 Y133.995 E45.84641
G1 X84.395 Y133.844 E45.87684
G1 X83.834 Y133.675 E45.90607
G1 X83.13 Y133.422 E45.94339
G1 X82.544 Y133.142 E45.9758
G1 X82.022 Y132.862 E46.00535
G1 X81.383 Y132.473 E46.04267
G1 X80.881 Y132.097 E46.07396
G1 X80.428 Y131.724 E46.10324
G1 X79.877 Y131.218 E46.14056
G1 X79.473 Y130.768 E46.17073
G1 X79.101 Y130.316 E46.19994
G1 X78.657 Y129.714 E46.23726
G1 X78.335 Y129.173 E46.26867
G1 X78.056 Y128.652 E46.29815
G1 X77.739 Y127.974 E46.33549
G1 X77.523 Y127.36 E46.36796
G1 X77.445 Y127.099 E46.38155
G1 X76.288 Y124.2 E46.53728
G1 X72.711 Y124.2 E46.71574
G1 X71.556 Y127.098 E46.87138
G1 X71.476 Y127.363 E46.88519
G1 X71.223 Y128.067 E46.92251
G1 X70.944 Y128.652 E46.95485
G1 X70.665 Y129.173 E46.98433
G1 X70.277 Y129.812 E47.02163
G1 X69.899 Y130.316 E47.05306
G1 X69.527 Y130.768 E47.08226
G1 X69.021 Y131.32 E47.11962
G1 X68.572 Y131.724 E47.14976
G1 X68.119 Y132.097 E47.17903
G1 X67.516 Y132.541 E47.21639
G1 X66.978 Y132.862 E47.24765
